;Generated with Cura_SteamEngine 13.12
M140 S100.000000
M109 T0 S225.000000
T0
M190 S100.000000
;Sliced at: Tue 21-01-2014 16:04:10
;Basic settings: Layer height: 0.08 Walls: 0.5 Fill: 80
;Print time: #P_TIME#
;Filament used: #F_AMNT#m #F_WGHT#g
;Filament cost: #F_COST#
;M190 S100 ;Uncomment to add your own bed temperature line
;M109 S225 ;Uncomment to add your own temperature line
G21        ;metric values
G90        ;absolute positioning
M107       ;start with the fan off
G28 X0 Y0  ;move X/Y to min endstops
G28 Z0     ;move Z to min endstops
G1 Z15.0 F6000 ;move the platform down 15mm
G92 E0                  ;zero the extruded length
G1 F200 E3              ;extrude 3mm of feed stock
G92 E0                  ;zero the extruded length again
G1 F6000
;Put printing message on LCD screen
M117 Printing...

;Layer count: 205
;LAYER:0
M107
G0 F1800 X73.25 Y64.65 Z0.30
;TYPE:SKIRT
G1 F2400 E0.00000
G1 F1140 X75.15 Y62.75 E0.16788
G1 X118.66 Y62.76 E2.88109
G1 X118.92 Y62.78 E2.89698
G1 X120.19 Y62.98 E2.97728
G1 X120.67 Y63.13 E3.00921
G1 X121.97 Y63.79 E3.09966
G1 X122.38 Y64.09 E3.13158
G1 X123.41 Y65.12 E3.22198
G1 X123.71 Y65.53 E3.25390
G1 X124.36 Y66.82 E3.34429
G1 X124.52 Y67.31 E3.37626
G1 X124.73 Y68.62 E3.45879
G1 X124.75 Y68.87 E3.47468
G1 X124.75 Y75.60 E3.89401
G1 X122.85 Y77.50 E4.06193
G1 X124.75 Y79.40 E4.22981
G1 X124.75 Y97.90 E5.38302
G1 X124.26 Y99.09 E5.46363
G1 X121.35 Y102.00 E5.72023
G1 X124.26 Y104.91 E5.97679
G1 X124.75 Y106.10 E6.05739
G1 X124.75 Y108.60 E6.21286
G1 X122.85 Y110.50 E6.38078
G1 X122.85 Y110.50 E6.38091
G1 X124.75 Y112.41 E6.54901
G1 X124.74 Y116.17 E6.78343
G1 X124.72 Y116.42 E6.79919
G1 X124.52 Y117.69 E6.87939
G1 X124.36 Y118.18 E6.91126
G1 X123.71 Y119.47 E7.00162
G1 X123.41 Y119.88 E7.03355
G1 X122.38 Y120.91 E7.12394
G1 X121.97 Y121.21 E7.15587
G1 X120.67 Y121.86 E7.24631
G1 X120.19 Y122.02 E7.27830
G1 X118.88 Y122.23 E7.36074
G1 X118.63 Y122.25 E7.37664
G1 X75.15 Y122.25 E10.08774
G1 X73.25 Y120.35 E10.25566
G1 X73.25 Y64.65 E13.72870
G0 F1800 X76.75 Y66.25
;TYPE:WALL-OUTER
G1 F1140 X118.51 Y66.26 E16.33316
G1 X119.35 Y66.39 E16.38581
G1 X120.11 Y66.78 E16.43942
G1 X120.72 Y67.39 E16.49304
G1 X121.11 Y68.15 E16.54665
G1 X121.25 Y69.02 E16.60152
G1 X121.25 Y74.00 E16.91209
G1 X96.07 Y74.00 E18.48250
G1 X94.92 Y74.20 E18.55494
G1 X94.88 Y74.22 E18.55772
G1 X93.83 Y74.83 E18.63352
G1 X93.08 Y75.73 E18.70665
G1 X93.06 Y75.77 E18.70935
G1 X92.66 Y76.87 E18.78243
G1 X92.65 Y78.09 E18.85826
G1 X92.66 Y78.13 E18.86098
G1 X93.06 Y79.23 E18.93411
G1 X93.08 Y79.27 E18.93687
G1 X93.83 Y80.17 E19.00995
G1 X93.87 Y80.19 E19.01270
G1 X94.92 Y80.80 E19.08856
G1 X96.09 Y81.00 E19.16238
G1 X121.25 Y81.00 E20.73142
G1 X121.25 Y97.15 E21.73827
G1 X116.50 Y101.90 E22.15724
G1 X116.50 Y102.10 E22.17015
G1 X121.25 Y106.85 E22.58916
G1 X121.25 Y107.00 E22.59826
G1 X96.09 Y107.00 E24.16737
G1 X94.88 Y107.22 E24.24388
G1 X93.87 Y107.80 E24.31697
G1 X93.83 Y107.83 E24.31972
G1 X93.08 Y108.73 E24.39280
G1 X93.06 Y108.77 E24.39556
G1 X92.66 Y109.87 E24.46869
G1 X92.65 Y111.08 E24.54446
G1 X92.66 Y111.13 E24.54724
G1 X93.06 Y112.23 E24.62032
G1 X93.08 Y112.27 E24.62302
G1 X93.87 Y113.19 E24.69886
G1 X94.88 Y113.78 E24.77197
G1 X94.92 Y113.80 E24.77475
G1 X96.09 Y114.00 E24.84850
G1 X121.25 Y114.00 E26.41755
G1 X121.25 Y116.01 E26.54314
G1 X121.11 Y116.85 E26.59575
G1 X120.72 Y117.61 E26.64941
G1 X120.11 Y118.22 E26.70303
G1 X119.35 Y118.61 E26.75664
G1 X118.48 Y118.75 E26.81144
G1 X76.75 Y118.75 E29.41384
G1 X76.75 Y66.25 E32.68776
G0 F1800 X76.92 Y66.67
;TYPE:FILL
G1 F1140 X117.08 Y106.82 E36.22902
G0 F1800 X117.78 Y106.82
G1 F1140 X77.39 Y66.42 E39.79198
G0 F1800 X78.09 Y66.42
G1 F1140 X118.49 Y106.82 E43.35494
G0 F1800 X119.20 Y106.82
G1 F1140 X78.80 Y66.42 E46.91790
G0 F1800 X79.51 Y66.42
G1 F1140 X119.91 Y106.82 E50.48081
G0 F1800 X120.61 Y106.82
G1 F1140 X94.61 Y80.82 E52.77439
G0 F1800 X95.58 Y81.09
G1 F1140 X116.33 Y101.84 E54.60420
G0 F1800 X116.67 Y101.47
G1 F1140 X96.38 Y81.17 E56.39419
G0 F1800 X97.08 Y81.17
G1 F1140 X117.03 Y101.12 E58.15296
G0 F1800 X117.38 Y100.76
G1 F1140 X97.79 Y81.17 E59.88060
G0 F1800 X98.50 Y81.17
G1 F1140 X117.73 Y100.41 E61.57702
G0 F1800 X118.09 Y100.06
G1 F1140 X99.21 Y81.17 E63.24226
G0 F1800 X99.91 Y81.17
G1 F1140 X118.44 Y99.70 E64.87628
G0 F1800 X118.80 Y99.35
G1 F1140 X100.62 Y81.17 E66.47912
G0 F1800 X101.33 Y81.17
G1 F1140 X119.15 Y99.00 E68.05078
G0 F1800 X119.50 Y98.64
G1 F1140 X102.04 Y81.17 E69.59127
G0 F1800 X102.74 Y81.17
G1 F1140 X119.86 Y98.29 E71.10063
G0 F1800 X120.21 Y97.94
G1 F1140 X103.45 Y81.17 E72.57877
G0 F1800 X104.16 Y81.17
G1 F1140 X120.56 Y97.58 E74.02577
G0 F1800 X120.92 Y97.23
G1 F1140 X104.86 Y81.17 E75.44155
G0 F1800 X105.57 Y81.17
G1 F1140 X121.07 Y96.68 E76.80887
G0 F1800 X121.07 Y95.97
G1 F1140 X106.28 Y81.17 E78.11384
G0 F1800 X106.99 Y81.17
G1 F1140 X121.07 Y95.26 E79.35641
G0 F1800 X121.07 Y94.56
G1 F1140 X107.69 Y81.17 E80.53662
G0 F1800 X108.40 Y81.17
G1 F1140 X121.07 Y93.85 E81.65448
G0 F1800 X121.07 Y93.14
G1 F1140 X109.11 Y81.17 E82.70999
G0 F1800 X109.81 Y81.17
G1 F1140 X121.07 Y92.44 E83.70315
G0 F1800 X121.07 Y91.73
G1 F1140 X110.52 Y81.17 E84.63395
G0 F1800 X111.23 Y81.17
G1 F1140 X121.07 Y91.02 E85.50240
G0 F1800 X121.07 Y90.31
G1 F1140 X111.94 Y81.17 E86.30845
G0 F1800 X112.64 Y81.17
G1 F1140 X121.07 Y89.61 E87.05215
G0 F1800 X121.07 Y88.90
G1 F1140 X113.35 Y81.17 E87.73349
G0 F1800 X114.06 Y81.17
G1 F1140 X121.07 Y88.19 E88.35244
G0 F1800 X121.07 Y87.49
G1 F1140 X114.76 Y81.17 E88.90903
G0 F1800 X115.47 Y81.17
G1 F1140 X121.07 Y86.78 E89.40327
G0 F1800 X121.07 Y86.07
G1 F1140 X116.18 Y81.17 E89.83516
G0 F1800 X116.88 Y81.17
G1 F1140 X121.07 Y85.36 E90.20470
G0 F1800 X121.07 Y84.66
G1 F1140 X117.59 Y81.17 E90.51188
G0 F1800 X118.30 Y81.17
G1 F1140 X121.07 Y83.95 E90.75670
G0 F1800 X121.07 Y83.24
G1 F1140 X119.01 Y81.17 E90.93913
G0 F1800 X119.71 Y81.17
G1 F1140 X121.07 Y82.54 E91.05921
G0 F1800 X121.07 Y81.83
G1 F1140 X120.42 Y81.17 E91.11689
G0 F1800 X120.42 Y81.35
G0 X96.01 Y81.44
G0 X94.69 Y81.19
G0 X93.52 Y80.48
G0 X92.65 Y79.42
G0 X92.20 Y78.13
G0 X92.22 Y76.75
G0 X92.71 Y75.47
G0 X93.61 Y74.44
G0 X94.81 Y73.77
G0 X96.07 Y73.55
G0 X120.14 Y73.65
G0 X120.14 Y73.82
G1 F1140 X112.75 Y66.43 E91.76900
G0 F1800 X113.45 Y66.43
G1 F1140 X120.85 Y73.82 E92.42111
G0 F1800 X121.07 Y73.34
G1 F1140 X114.16 Y66.43 E93.03084
G0 F1800 X114.87 Y66.43
G1 F1140 X121.07 Y72.64 E93.57817
G0 F1800 X121.07 Y71.93
G1 F1140 X115.58 Y66.43 E94.06315
G0 F1800 X116.28 Y66.43
G1 F1140 X121.07 Y71.22 E94.48578
G0 F1800 X121.07 Y70.52
G1 F1140 X116.99 Y66.43 E94.84605
G0 F1800 X117.70 Y66.43
G1 F1140 X121.07 Y69.81 E95.14397
G0 F1800 X121.07 Y69.10
G1 F1140 X118.40 Y66.43 E95.37954
G0 F1800 X119.22 Y66.55
G1 F1140 X120.95 Y68.27 E95.53194
G0 F1800 X120.78 Y68.30
G0 X119.43 Y73.65
G0 X119.43 Y73.82
G1 F1140 X112.04 Y66.43 E96.18409
G0 F1800 X111.33 Y66.43
G1 F1140 X118.73 Y73.82 E96.83624
G0 F1800 X118.02 Y73.82
G1 F1140 X110.62 Y66.43 E97.48835
G0 F1800 X109.92 Y66.43
G1 F1140 X117.31 Y73.82 E98.14046
G0 F1800 X116.60 Y73.82
G1 F1140 X109.21 Y66.43 E98.79266
G0 F1800 X108.50 Y66.43
G1 F1140 X115.90 Y73.82 E99.44485
G0 F1800 X115.19 Y73.82
G1 F1140 X107.80 Y66.43 E100.09705
G0 F1800 X107.09 Y66.43
G1 F1140 X114.48 Y73.83 E100.74933
G0 F1800 X113.78 Y73.83
G1 F1140 X106.38 Y66.43 E101.40162
G0 F1800 X105.67 Y66.43
G1 F1140 X113.07 Y73.83 E102.05386
G0 F1800 X112.36 Y73.83
G1 F1140 X104.97 Y66.43 E102.70610
G0 F1800 X104.26 Y66.43
G1 F1140 X111.66 Y73.83 E103.35838
G0 F1800 X110.95 Y73.83
G1 F1140 X103.55 Y66.43 E104.01067
G0 F1800 X102.85 Y66.43
G1 F1140 X110.24 Y73.83 E104.66295
G0 F1800 X109.53 Y73.83
G1 F1140 X102.14 Y66.43 E105.31524
G0 F1800 X101.43 Y66.43
G1 F1140 X108.83 Y73.83 E105.96757
G0 F1800 X108.12 Y73.83
G1 F1140 X100.72 Y66.43 E106.61994
G0 F1800 X100.02 Y66.43
G1 F1140 X107.41 Y73.83 E107.27236
G0 F1800 X106.71 Y73.83
G1 F1140 X99.31 Y66.43 E107.92482
G0 F1800 X98.60 Y66.43
G1 F1140 X106.00 Y73.83 E108.57728
G0 F1800 X105.29 Y73.83
G1 F1140 X97.89 Y66.43 E109.22974
G0 F1800 X97.19 Y66.43
G1 F1140 X104.58 Y73.83 E109.88220
G0 F1800 X103.88 Y73.83
G1 F1140 X96.48 Y66.43 E110.53466
G0 F1800 X95.77 Y66.43
G1 F1140 X103.17 Y73.83 E111.18712
G0 F1800 X102.46 Y73.83
G1 F1140 X95.06 Y66.43 E111.83967
G0 F1800 X94.36 Y66.43
G1 F1140 X101.76 Y73.83 E112.49222
G0 F1800 X101.05 Y73.83
G1 F1140 X93.65 Y66.43 E113.14477
G0 F1800 X92.94 Y66.43
G1 F1140 X100.34 Y73.83 E113.79732
G0 F1800 X99.64 Y73.83
G1 F1140 X92.24 Y66.43 E114.44987
G0 F1800 X91.53 Y66.43
G1 F1140 X98.93 Y73.83 E115.10242
G0 F1800 X98.22 Y73.83
G1 F1140 X90.82 Y66.43 E115.75501
G0 F1800 X90.11 Y66.43
G1 F1140 X97.51 Y73.83 E116.40756
G0 F1800 X96.81 Y73.83
G1 F1140 X89.41 Y66.43 E117.06015
G0 F1800 X88.70 Y66.43
G1 F1140 X96.10 Y73.83 E117.71275
G0 F1800 X95.49 Y73.92
G1 F1140 X87.99 Y66.43 E118.37407
G0 F1800 X87.29 Y66.43
G1 F1140 X94.89 Y74.03 E119.04470
G0 F1800 X94.43 Y74.28
G1 F1140 X86.58 Y66.43 E119.73716
G0 F1800 X85.87 Y66.43
G1 F1140 X93.98 Y74.54 E120.45272
G0 F1800 X93.59 Y74.85
G1 F1140 X85.16 Y66.43 E121.19567
G0 F1800 X84.46 Y66.43
G1 F1140 X93.27 Y75.23 E121.97249
G0 F1800 X92.94 Y75.62
G1 F1140 X83.75 Y66.43 E122.78326
G0 F1800 X83.04 Y66.43
G1 F1140 X92.74 Y76.12 E123.63848
G0 F1800 X92.55 Y76.64
G1 F1140 X82.34 Y66.43 E124.53938
G0 F1800 X81.63 Y66.43
G1 F1140 X92.48 Y77.28 E125.49624
G0 F1800 X92.47 Y77.98
G1 F1140 X80.92 Y66.42 E126.51515
G0 F1800 X80.21 Y66.42
G1 F1140 X92.78 Y79.00 E127.62389
G0 F1800 X92.62 Y79.06
G0 X77.10 Y78.69
G0 X76.92 Y78.69
G1 F1140 X105.05 Y106.82 E130.10475
G0 F1800 X104.35 Y106.82
G1 F1140 X76.92 Y79.40 E132.52325
G0 F1800 X76.92 Y80.11
G1 F1140 X103.64 Y106.82 E134.87936
G0 F1800 X102.93 Y106.82
G1 F1140 X76.92 Y80.81 E137.17312
G0 F1800 X76.92 Y81.52
G1 F1140 X102.22 Y106.82 E139.40452
G0 F1800 X101.52 Y106.82
G1 F1140 X76.92 Y82.23 E141.57353
G0 F1800 X76.92 Y82.94
G1 F1140 X100.81 Y106.82 E143.68013
G0 F1800 X100.10 Y106.82
G1 F1140 X76.92 Y83.64 E145.72439
G0 F1800 X76.92 Y84.35
G1 F1140 X99.40 Y106.82 E147.70629
G0 F1800 X98.69 Y106.82
G1 F1140 X76.92 Y85.06 E149.62584
G0 F1800 X76.92 Y85.76
G1 F1140 X97.98 Y106.82 E151.48303
G0 F1800 X97.28 Y106.82
G1 F1140 X76.92 Y86.47 E153.27787
G0 F1800 X76.92 Y87.18
G1 F1140 X96.57 Y106.82 E155.01036
G0 F1800 X95.89 Y106.85
G1 F1140 X76.92 Y87.88 E156.68332
G0 F1800 X76.92 Y88.59
G1 F1140 X95.30 Y106.96 E158.30353
G0 F1800 X94.73 Y107.10
G1 F1140 X76.92 Y89.30 E159.87370
G0 F1800 X76.92 Y90.01
G1 F1140 X94.28 Y107.36 E161.40431
G0 F1800 X93.83 Y107.62
G1 F1140 X76.92 Y90.71 E162.89546
G0 F1800 X76.92 Y91.42
G1 F1140 X93.48 Y107.98 E164.35569
G0 F1800 X93.16 Y108.36
G1 F1140 X76.92 Y92.13 E165.78743
G0 F1800 X76.92 Y92.83
G1 F1140 X92.87 Y108.78 E167.19356
G0 F1800 X92.68 Y109.30
G1 F1140 X76.92 Y93.54 E168.58306
G0 F1800 X76.92 Y94.25
G1 F1140 X92.49 Y109.81 E169.95589
G0 F1800 X92.48 Y110.51
G1 F1140 X76.92 Y94.95 E171.32766
G0 F1800 X76.92 Y95.66
G1 F1140 X92.52 Y111.25 E172.70275
G0 F1800 X93.00 Y112.44
G1 F1140 X76.92 Y96.37 E174.12011
G0 F1800 X76.92 Y97.08
G1 F1140 X98.42 Y118.57 E176.01598
G0 F1800 X97.71 Y118.57
G1 F1140 X76.92 Y97.78 E177.84950
G0 F1800 X76.92 Y98.49
G1 F1140 X97.01 Y118.57 E179.62066
G0 F1800 X96.30 Y118.57
G1 F1140 X76.92 Y99.20 E181.32947
G0 F1800 X76.92 Y99.90
G1 F1140 X95.59 Y118.57 E182.97592
G0 F1800 X94.89 Y118.57
G1 F1140 X76.92 Y100.61 E184.55998
G0 F1800 X76.92 Y101.32
G1 F1140 X94.18 Y118.57 E186.08168
G0 F1800 X93.47 Y118.57
G1 F1140 X76.92 Y102.03 E187.54103
G0 F1800 X76.92 Y102.73
G1 F1140 X92.76 Y118.57 E188.93798
G0 F1800 X92.06 Y118.57
G1 F1140 X76.92 Y103.44 E190.27258
G0 F1800 X76.92 Y104.15
G1 F1140 X91.35 Y118.57 E191.54483
G0 F1800 X90.64 Y118.57
G1 F1140 X76.92 Y104.85 E192.75472
G0 F1800 X76.92 Y105.56
G1 F1140 X89.94 Y118.57 E193.90226
G0 F1800 X89.23 Y118.57
G1 F1140 X76.92 Y106.27 E194.98745
G0 F1800 X76.92 Y106.98
G1 F1140 X88.52 Y118.57 E196.01024
G0 F1800 X87.81 Y118.57
G1 F1140 X76.92 Y107.68 E196.97067
G0 F1800 X76.92 Y108.39
G1 F1140 X87.11 Y118.57 E197.86875
G0 F1800 X86.40 Y118.57
G1 F1140 X76.92 Y109.10 E198.70444
G0 F1800 X76.92 Y109.80
G1 F1140 X85.69 Y118.57 E199.47777
G0 F1800 X84.98 Y118.57
G1 F1140 X76.92 Y110.51 E200.18875
G0 F1800 X76.92 Y111.22
G1 F1140 X84.28 Y118.57 E200.83737
G0 F1800 X83.57 Y118.57
G1 F1140 X76.92 Y111.93 E201.42364
G0 F1800 X76.92 Y112.63
G1 F1140 X82.86 Y118.57 E201.94756
G0 F1800 X82.16 Y118.57
G1 F1140 X76.92 Y113.34 E202.40908
G0 F1800 X76.92 Y114.05
G1 F1140 X81.45 Y118.57 E202.80825
G0 F1800 X80.74 Y118.57
G1 F1140 X76.92 Y114.75 E203.14506
G0 F1800 X76.92 Y115.46
G1 F1140 X80.04 Y118.57 E203.41952
G0 F1800 X79.33 Y118.57
G1 F1140 X76.92 Y116.17 E203.63159
G0 F1800 X76.92 Y116.88
G1 F1140 X78.62 Y118.57 E203.78130
G0 F1800 X77.91 Y118.57
G1 F1140 X76.92 Y117.58 E203.86865
G0 F1800 X76.92 Y118.29
G1 F1140 X77.21 Y118.57 E203.89366
G0 F1800 X77.21 Y118.40
G0 X93.98 Y113.66
G0 X94.07 Y113.51
G1 F1140 X99.13 Y118.57 E204.33996
G0 F1800 X99.83 Y118.57
G1 F1140 X95.30 Y114.04 E204.74006
G0 F1800 X96.14 Y114.17
G1 F1140 X100.54 Y118.57 E205.12820
G0 F1800 X101.25 Y118.57
G1 F1140 X96.85 Y114.17 E205.51634
G0 F1800 X97.56 Y114.17
G1 F1140 X101.96 Y118.57 E205.90449
G0 F1800 X102.66 Y118.57
G1 F1140 X98.26 Y114.17 E206.29263
G0 F1800 X98.97 Y114.17
G1 F1140 X103.37 Y118.57 E206.68077
G0 F1800 X104.08 Y118.57
G1 F1140 X99.68 Y114.17 E207.06891
G0 F1800 X100.38 Y114.17
G1 F1140 X104.78 Y118.57 E207.45706
G0 F1800 X105.49 Y118.57
G1 F1140 X101.09 Y114.17 E207.84516
G0 F1800 X101.80 Y114.17
G1 F1140 X106.20 Y118.57 E208.23325
G0 F1800 X106.91 Y118.57
G1 F1140 X102.51 Y114.17 E208.62140
G0 F1800 X103.21 Y114.17
G1 F1140 X107.61 Y118.57 E209.00954
G0 F1800 X108.32 Y118.57
G1 F1140 X103.92 Y114.17 E209.39768
G0 F1800 X104.63 Y114.17
G1 F1140 X109.03 Y118.57 E209.78578
G0 F1800 X109.73 Y118.57
G1 F1140 X105.33 Y114.17 E210.17388
G0 F1800 X106.04 Y114.17
G1 F1140 X110.44 Y118.57 E210.56198
G0 F1800 X111.15 Y118.57
G1 F1140 X106.75 Y114.17 E210.94999
G0 F1800 X107.46 Y114.17
G1 F1140 X111.86 Y118.57 E211.33800
G0 F1800 X112.56 Y118.57
G1 F1140 X108.16 Y114.17 E211.72601
G0 F1800 X108.87 Y114.17
G1 F1140 X113.27 Y118.57 E212.11407
G0 F1800 X113.98 Y118.57
G1 F1140 X109.58 Y114.17 E212.50212
G0 F1800 X110.28 Y114.17
G1 F1140 X114.68 Y118.57 E212.89018
G0 F1800 X115.39 Y118.57
G1 F1140 X110.99 Y114.17 E213.27823
G0 F1800 X111.70 Y114.17
G1 F1140 X116.10 Y118.57 E213.66620
G0 F1800 X116.81 Y118.57
G1 F1140 X112.41 Y114.17 E214.05416
G0 F1800 X113.11 Y114.17
G1 F1140 X117.51 Y118.57 E214.44213
G0 F1800 X118.22 Y118.57
G1 F1140 X113.82 Y114.17 E214.83010
G0 F1800 X114.53 Y114.17
G1 F1140 X118.86 Y118.51 E215.21251
G0 F1800 X119.43 Y118.37
G1 F1140 X115.24 Y114.17 E215.58261
G0 F1800 X115.94 Y114.17
G1 F1140 X119.90 Y118.13 E215.93169
G0 F1800 X120.28 Y117.81
G1 F1140 X116.65 Y114.18 E216.25188
G0 F1800 X117.36 Y114.18
G1 F1140 X120.62 Y117.43 E216.53930
G0 F1800 X120.85 Y116.97
G1 F1140 X118.06 Y114.18 E216.78536
G0 F1800 X118.77 Y114.18
G1 F1140 X121.00 Y116.41 E216.98230
G0 F1800 X121.07 Y115.77
G1 F1140 X119.48 Y114.18 E217.12262
G0 F1800 X120.19 Y114.18
G1 F1140 X121.07 Y115.06 E217.20076
G0 F1800 X121.07 Y114.36
G1 F1140 X120.89 Y114.18 E217.21663
G0 F1800 X120.89 Y114.35
G0 X96.01 Y114.44
G0 X94.69 Y114.19
G0 X93.51 Y113.48
G0 X92.65 Y112.42
G0 X92.20 Y111.12
G0 X92.22 Y109.75
G0 X92.71 Y108.47
G0 X93.61 Y107.44
G0 X94.81 Y106.77
G0 X96.07 Y106.55
G0 X116.37 Y106.65
G0 X116.37 Y106.82
G1 F1140 X76.92 Y67.38 E220.69550
G0 F1800 X76.92 Y68.08
G1 F1140 X115.66 Y106.82 E224.11197
G0 F1800 X114.96 Y106.82
G1 F1140 X76.92 Y68.79 E227.46604
G0 F1800 X76.92 Y69.50
G1 F1140 X114.25 Y106.82 E230.75771
G0 F1800 X113.54 Y106.82
G1 F1140 X76.92 Y70.21 E233.98703
G0 F1800 X76.92 Y70.91
G1 F1140 X112.83 Y106.82 E237.15400
G0 F1800 X112.13 Y106.82
G1 F1140 X76.92 Y71.62 E240.25862
G0 F1800 X76.92 Y72.33
G1 F1140 X111.42 Y106.82 E243.30088
G0 F1800 X110.71 Y106.82
G1 F1140 X76.92 Y73.03 E246.28070
G0 F1800 X76.92 Y73.74
G1 F1140 X110.00 Y106.82 E249.19816
G0 F1800 X109.30 Y106.82
