;Generated with Cura_SteamEngine 13.12
M109 T0 S230.000000
T0
;Sliced at: Tue 14-01-2014 16:56:37
;Basic settings: Layer height: 0.1 Walls: 0.8 Fill: 80
;Print time: #P_TIME#
;Filament used: #F_AMNT#m #F_WGHT#g
;Filament cost: #F_COST#
;M190 S70 ;Uncomment to add your own bed temperature line
;M109 S230 ;Uncomment to add your own temperature line
G21        ;metric values
G90        ;absolute positioning
M107       ;start with the fan off
G28 X0 Y0  ;move X/Y to min endstops
G28 Z0     ;move Z to min endstops
G1 Z15.0 F6000 ;move the platform down 15mm
G92 E0                  ;zero the extruded length
G1 F200 E3              ;extrude 3mm of feed stock
G92 E0                  ;zero the extruded length again
G1 F6000
;Put printing message on LCD screen
M117 Printing...

;Layer count: 237
;LAYER:0
M107
G0 F2400 X109.22 Y68.80 Z0.30
;TYPE:SKIRT
G1 F2400 E0.00000
G1 F1200 X109.58 Y68.31 E0.03040
G1 X110.38 Y67.36 E0.09229
G1 X110.82 Y66.93 E0.12305
G1 X111.76 Y66.12 E0.18502
G1 X112.26 Y65.76 E0.21549
G1 X113.32 Y65.11 E0.27738
G1 X113.86 Y64.83 E0.30806
G1 X115.01 Y64.36 E0.36989
G1 X115.59 Y64.17 E0.40026
G1 X116.79 Y63.88 E0.46215
G1 X117.40 Y63.78 E0.49291
G1 X118.49 Y63.70 E0.54726
G1 X118.79 Y63.69 E0.56249
G1 X137.10 Y63.69 E1.47578
G1 X137.41 Y63.70 E1.49110
G1 X138.51 Y63.79 E1.54610
G1 X139.13 Y63.89 E1.57744
G1 X140.33 Y64.18 E1.63947
G1 X140.91 Y64.37 E1.66961
G1 X142.04 Y64.84 E1.73106
G1 X142.58 Y65.12 E1.76123
G1 X143.63 Y65.76 E1.82277
G1 X144.14 Y66.13 E1.85372
G1 X144.50 Y66.44 E1.87757
G1 X145.55 Y66.87 E1.93414
G1 X148.16 Y69.47 E2.11794
G1 X149.35 Y72.34 E2.27301
G1 X149.35 Y76.43 E2.47676
G1 X148.75 Y77.88 E2.55491
G1 X148.75 Y111.88 E4.25118
G1 X144.18 Y116.44 E4.57362
G1 X111.72 Y116.44 E6.19310
G1 X107.15 Y111.87 E6.51547
G1 X107.15 Y75.33 E8.33841
G1 X107.16 Y75.03 E8.35364
G1 X107.24 Y73.94 E8.40798
G1 X107.34 Y73.33 E8.43874
G1 X107.63 Y72.13 E8.50064
G1 X107.82 Y71.55 E8.53101
G1 X108.29 Y70.41 E8.59283
G1 X108.57 Y69.86 E8.62351
G1 X109.22 Y68.80 E8.68541
G0 F2400 X109.55 Y69.02
G1 F1200 X109.89 Y68.55 E8.71430
G1 X110.68 Y67.63 E8.77460
G1 X111.09 Y67.22 E8.80374
G1 X112.01 Y66.44 E8.86415
G1 X112.48 Y66.09 E8.89304
G1 X113.51 Y65.46 E8.95337
G1 X114.03 Y65.20 E8.98253
G1 X115.15 Y64.73 E9.04279
G1 X115.69 Y64.56 E9.07154
G1 X116.87 Y64.27 E9.13184
G1 X117.45 Y64.18 E9.16113
G1 X118.51 Y64.10 E9.21433
G1 X118.80 Y64.09 E9.22871
G1 X137.09 Y64.09 E10.14120
G1 X137.38 Y64.10 E10.15578
G1 X138.46 Y64.18 E10.20958
G1 X139.04 Y64.28 E10.23924
G1 X140.22 Y64.57 E10.29974
G1 X140.77 Y64.74 E10.32834
G1 X141.88 Y65.21 E10.38828
G1 X142.39 Y65.47 E10.41693
G1 X143.41 Y66.09 E10.47683
G1 X143.89 Y66.44 E10.50619
G1 X144.29 Y66.78 E10.53255
G1 X145.32 Y67.21 E10.58820
G1 X147.82 Y69.70 E10.76403
G1 X148.95 Y72.42 E10.91113
G1 X148.95 Y76.35 E11.10695
G1 X148.35 Y77.80 E11.18519
G1 X148.35 Y111.71 E12.87712
G1 X144.01 Y116.05 E13.18298
G1 X111.88 Y116.04 E14.78600
G1 X107.55 Y111.71 E15.09179
G1 X107.55 Y75.34 E16.90609
G1 X107.56 Y75.06 E16.92047
G1 X107.64 Y73.99 E16.97367
G1 X107.73 Y73.41 E17.00297
G1 X108.02 Y72.24 E17.06326
G1 X108.19 Y71.69 E17.09201
G1 X108.66 Y70.57 E17.15227
G1 X108.92 Y70.05 E17.18143
G1 X109.55 Y69.02 E17.24172
G0 F2400 X109.89 Y69.24
G1 F1200 X110.21 Y68.80 E17.26904
G1 X110.97 Y67.91 E17.32779
G1 X111.36 Y67.52 E17.35531
G1 X112.26 Y66.75 E17.41412
G1 X112.70 Y66.43 E17.44151
G1 X113.71 Y65.81 E17.50028
G1 X114.20 Y65.56 E17.52781
G1 X115.29 Y65.11 E17.58655
G1 X115.80 Y64.94 E17.61374
G1 X116.95 Y64.67 E17.67249
G1 X117.50 Y64.58 E17.70018
G1 X118.54 Y64.50 E17.75217
G1 X118.81 Y64.49 E17.76580
G1 X137.08 Y64.49 E18.67749
G1 X137.36 Y64.50 E18.69127
G1 X138.41 Y64.58 E18.74387
G1 X138.97 Y64.67 E18.77196
G1 X140.11 Y64.95 E18.83087
G1 X140.63 Y65.12 E18.85789
G1 X141.71 Y65.57 E18.91626
G1 X142.19 Y65.82 E18.94340
G1 X143.19 Y66.43 E19.00178
G1 X143.64 Y66.75 E19.02950
G1 X144.08 Y67.13 E19.05837
G1 X145.09 Y67.55 E19.11315
G1 X147.48 Y69.93 E19.28104
G1 X148.55 Y72.50 E19.42023
G1 X148.55 Y76.27 E19.60812
G1 X147.95 Y77.72 E19.68631
G1 X147.95 Y111.54 E21.37395
G1 X143.85 Y115.65 E21.66330
G1 X112.05 Y115.64 E23.24976
G1 X107.95 Y111.54 E23.53903
G1 X107.95 Y75.35 E25.34466
G1 X107.96 Y75.08 E25.35829
G1 X108.04 Y74.04 E25.41028
G1 X108.13 Y73.49 E25.43797
G1 X108.40 Y72.35 E25.49672
G1 X108.57 Y71.83 E25.52390
G1 X109.02 Y70.74 E25.58264
G1 X109.27 Y70.25 E25.61018
G1 X109.89 Y69.24 E25.66894
G0 F2400 X110.22 Y69.47
G1 F1200 X110.52 Y69.05 E25.69469
G1 X111.27 Y68.18 E25.75188
G1 X111.63 Y67.81 E25.77784
G1 X112.51 Y67.06 E25.83510
G1 X112.92 Y66.76 E25.86088
G1 X113.90 Y66.16 E25.91809
G1 X114.36 Y65.92 E25.94406
G1 X115.42 Y65.49 E26.00118
G1 X115.91 Y65.33 E26.02687
G1 X117.03 Y65.06 E26.08409
G1 X117.54 Y64.98 E26.11016
G1 X118.56 Y64.90 E26.16096
G1 X118.82 Y64.89 E26.17384
G1 X137.08 Y64.89 E27.08478
G1 X137.34 Y64.90 E27.09776
G1 X138.36 Y64.98 E27.14916
G1 X138.89 Y65.06 E27.17564
G1 X140.00 Y65.33 E27.23295
G1 X140.49 Y65.50 E27.25843
G1 X141.54 Y65.93 E27.31528
G1 X142.00 Y66.17 E27.34083
G1 X142.97 Y66.76 E27.39764
G1 X143.39 Y67.07 E27.42379
G1 X143.86 Y67.47 E27.45485
G1 X144.87 Y67.89 E27.50905
G1 X147.14 Y70.15 E27.66897
G1 X148.15 Y72.58 E27.80024
G1 X148.15 Y76.19 E27.98014
G1 X147.55 Y77.64 E28.05834
G1 X147.55 Y111.38 E29.74168
G1 X143.68 Y115.25 E30.01452
G1 X112.21 Y115.24 E31.58442
G1 X108.35 Y111.38 E31.85718
G1 X108.35 Y75.36 E33.65413
G1 X108.36 Y75.10 E33.66701
G1 X108.44 Y74.09 E33.71780
G1 X108.52 Y73.57 E33.74387
G1 X108.79 Y72.45 E33.80109
G1 X108.94 Y71.97 E33.82678
G1 X109.38 Y70.91 E33.88391
G1 X109.62 Y70.44 E33.90988
G1 X110.22 Y69.47 E33.96705
G0 F2400 X110.55 Y69.69
G1 F1200 X110.84 Y69.30 E33.99126
G1 X111.56 Y68.45 E34.04686
G1 X111.91 Y68.10 E34.07131
G1 X112.75 Y67.38 E34.12697
G1 X113.15 Y67.09 E34.15118
G1 X114.10 Y66.51 E34.20681
G1 X114.53 Y66.29 E34.23122
G1 X115.56 Y65.86 E34.28678
G1 X116.02 Y65.71 E34.31090
G1 X117.11 Y65.45 E34.36648
G1 X117.59 Y65.38 E34.39103
G1 X118.58 Y65.30 E34.44062
G1 X118.82 Y65.29 E34.45271
G1 X137.07 Y65.29 E35.36290
G1 X137.31 Y65.30 E35.37508
G1 X138.32 Y65.38 E35.42528
G1 X138.81 Y65.45 E35.45014
G1 X139.89 Y65.72 E35.50591
G1 X140.35 Y65.87 E35.52991
G1 X141.37 Y66.30 E35.58519
G1 X141.80 Y66.52 E35.60913
G1 X142.75 Y67.09 E35.66440
G1 X143.14 Y67.38 E35.68897
G1 X143.65 Y67.82 E35.72248
G1 X144.64 Y68.23 E35.77587
G1 X146.80 Y70.38 E35.92788
G1 X147.75 Y72.66 E36.05110
G1 X147.75 Y76.11 E36.22312
G1 X147.15 Y77.56 E36.30132
G1 X147.15 Y111.21 E37.98037
G1 X143.51 Y114.85 E38.23663
G1 X112.38 Y114.84 E39.79006
G1 X108.75 Y111.21 E40.04625
G1 X108.75 Y75.37 E41.83461
G1 X108.76 Y75.12 E41.84669
G1 X108.83 Y74.13 E41.89629
G1 X108.91 Y73.65 E41.92084
G1 X109.17 Y72.56 E41.97641
G1 X109.32 Y72.10 E42.00054
G1 X109.75 Y71.08 E42.05610
G1 X109.97 Y70.64 E42.08051
G1 X110.55 Y69.69 E42.13609
G0 F2400 X110.88 Y69.91
G1 F1200 X111.15 Y69.54 E42.15873
G1 X111.85 Y68.72 E42.21277
G1 X112.18 Y68.40 E42.23560
G1 X113.00 Y67.69 E42.28971
G1 X113.37 Y67.42 E42.31238
G1 X114.29 Y66.86 E42.36639
G1 X114.70 Y66.65 E42.38922
G1 X115.70 Y66.24 E42.44322
G1 X116.13 Y66.10 E42.46584
G1 X117.18 Y65.84 E42.51987
G1 X117.64 Y65.77 E42.54275
G1 X118.61 Y65.70 E42.59119
G1 X118.83 Y65.69 E42.60253
G1 X137.06 Y65.69 E43.51193
G1 X137.29 Y65.70 E43.52336
G1 X138.27 Y65.77 E43.57235
G1 X138.73 Y65.85 E43.59560
G1 X139.78 Y66.11 E43.64978
G1 X140.21 Y66.25 E43.67219
G1 X141.20 Y66.66 E43.72591
G1 X141.60 Y66.86 E43.74838
G1 X142.52 Y67.43 E43.80203
G1 X142.90 Y67.70 E43.82504
G1 X143.44 Y68.17 E43.86091
G1 X144.41 Y68.57 E43.91350
G1 X146.46 Y70.61 E44.05761
G1 X147.35 Y72.74 E44.17289
G1 X147.35 Y76.03 E44.33693
G1 X146.75 Y77.48 E44.41508
G1 X146.75 Y111.05 E46.08989
G1 X143.35 Y114.44 E46.32964
G1 X112.54 Y114.44 E47.86651
G1 X109.15 Y111.05 E48.10618
G1 X109.15 Y75.37 E49.88587
G1 X109.16 Y75.15 E49.89720
G1 X109.23 Y74.18 E49.94564
G1 X109.30 Y73.73 E49.96852
G1 X109.56 Y72.67 E50.02255
G1 X109.70 Y72.24 E50.04518
G1 X110.11 Y71.24 E50.09917
G1 X110.32 Y70.83 E50.12200
G1 X110.88 Y69.91 E50.17602
G0 F2400 X111.22 Y70.13
G1 F1200 X111.46 Y69.79 E50.19709
G1 X112.15 Y68.99 E50.24957
G1 X112.45 Y68.69 E50.27081
G1 X113.25 Y68.01 E50.32336
G1 X113.59 Y67.76 E50.34451
G1 X114.49 Y67.21 E50.39700
G1 X114.87 Y67.02 E50.41822
G1 X115.84 Y66.61 E50.47065
G1 X116.24 Y66.48 E50.49168
G1 X117.26 Y66.24 E50.54414
G1 X117.69 Y66.17 E50.56550
G1 X118.63 Y66.09 E50.61279
G1 X118.84 Y66.09 E50.62328
G1 X137.05 Y66.09 E51.53188
G1 X137.26 Y66.10 E51.54246
G1 X138.22 Y66.17 E51.59031
G1 X138.65 Y66.24 E51.61198
G1 X139.67 Y66.49 E51.66456
G1 X140.07 Y66.62 E51.68542
G1 X141.04 Y67.02 E51.73762
G1 X141.41 Y67.21 E51.75851
G1 X142.30 Y67.76 E51.81064
G1 X142.65 Y68.01 E51.83208
G1 X143.23 Y68.51 E51.87050
G1 X144.19 Y68.91 E51.92211
G1 X146.12 Y70.83 E52.05824
G1 X146.95 Y72.82 E52.16563
G1 X146.95 Y75.95 E52.32173
G1 X146.35 Y77.40 E52.39984
G1 X146.35 Y110.88 E54.07036
G1 X143.18 Y114.05 E54.29360
G1 X112.71 Y114.04 E55.81390
G1 X109.55 Y110.88 E56.03707
G1 X109.55 Y75.38 E57.80807
G1 X109.55 Y75.17 E57.81856
G1 X109.63 Y74.23 E57.86585
G1 X109.69 Y73.80 E57.88721
G1 X109.94 Y72.78 E57.93967
G1 X110.07 Y72.38 E57.96070
G1 X110.47 Y71.41 E58.01313
G1 X110.67 Y71.03 E58.03435
G1 X111.22 Y70.13 E58.08684
G0 F2400 X111.55 Y70.36
G1 F1200 X111.78 Y70.04 E58.10638
G1 X112.44 Y69.26 E58.15727
G1 X112.72 Y68.98 E58.17696
G1 X113.50 Y68.32 E58.22795
G1 X113.82 Y68.09 E58.24753
G1 X114.69 Y67.56 E58.29846
G1 X115.04 Y67.38 E58.31805
G1 X115.98 Y66.99 E58.36896
G1 X116.35 Y66.87 E58.38843
G1 X117.34 Y66.63 E58.43933
G1 X117.73 Y66.57 E58.45908
G1 X118.65 Y66.50 E58.50517
G1 X118.85 Y66.49 E58.51491
G1 X137.04 Y66.49 E59.42271
G1 X137.24 Y66.50 E59.43255
G1 X138.17 Y66.57 E59.47919
G1 X138.57 Y66.63 E59.49920
G1 X139.56 Y66.88 E59.55024
G1 X139.93 Y67.00 E59.56957
G1 X140.87 Y67.39 E59.62020
G1 X141.21 Y67.56 E59.63952
G1 X142.08 Y68.09 E59.69007
G1 X142.40 Y68.33 E59.70992
G1 X143.02 Y68.86 E59.75065
G1 X143.96 Y69.25 E59.80161
G1 X145.78 Y71.06 E59.92981
G1 X146.55 Y72.90 E60.02920
G1 X146.55 Y75.87 E60.17738
G1 X145.95 Y77.32 E60.25562
G1 X145.95 Y110.72 E61.92175
G1 X143.02 Y113.65 E62.12841
G1 X112.87 Y113.64 E63.63225
G1 X109.95 Y110.72 E63.83884
G1 X109.95 Y75.39 E65.60121
G1 X109.95 Y75.19 E65.61094
G1 X110.03 Y74.27 E65.65703
G1 X110.09 Y73.88 E65.67678
G1 X110.33 Y72.89 E65.72769
G1 X110.45 Y72.52 E65.74716
G1 X110.84 Y71.58 E65.79807
G1 X111.02 Y71.23 E65.81766
G1 X111.55 Y70.36 E65.86859
G0 F2400 X111.88 Y70.58
G1 F1200 X112.09 Y70.29 E65.88659
G1 X112.74 Y69.53 E65.93589
G1 X112.99 Y69.28 E65.95402
G1 X113.75 Y68.64 E66.00343
G1 X114.04 Y68.42 E66.02139
G1 X114.88 Y67.91 E66.07073
G1 X115.20 Y67.74 E66.08880
G1 X116.12 Y67.36 E66.13810
G1 X116.46 Y67.25 E66.15599
G1 X117.42 Y67.02 E66.20536
G1 X117.78 Y66.97 E66.22355
G1 X118.68 Y66.89 E66.26844
G1 X118.86 Y66.89 E66.27742
G1 X137.04 Y66.89 E67.18443
G1 X137.22 Y66.89 E67.19346
G1 X138.13 Y66.97 E67.23890
G1 X138.49 Y67.03 E67.25740
G1 X139.45 Y67.26 E67.30685
G1 X139.79 Y67.37 E67.32460
G1 X140.70 Y67.75 E67.37367
G1 X141.02 Y67.91 E67.39148
G1 X141.85 Y68.42 E67.44045
G1 X142.15 Y68.64 E67.45873
G1 X142.81 Y69.20 E67.50176
G1 X143.74 Y69.58 E67.55200
G1 X145.44 Y71.29 E67.67227
G1 X146.15 Y72.98 E67.76372
G1 X146.15 Y75.79 E67.90391
G1 X145.55 Y77.24 E67.98216
G1 X145.55 Y110.55 E69.64400
G1 X142.85 Y113.25 E69.83415
G1 X113.04 Y113.24 E71.32142
G1 X110.35 Y110.55 E71.51150
G1 X110.35 Y75.40 E73.26519
G1 X110.35 Y75.22 E73.27418
G1 X110.42 Y74.32 E73.31907
G1 X110.48 Y73.96 E73.33725
G1 X110.71 Y73.00 E73.38662
G1 X110.82 Y72.66 E73.40451
G1 X111.20 Y71.75 E73.45381
G1 X111.36 Y71.42 E73.47188
G1 X111.88 Y70.58 E73.52122
G0 F2400 X112.21 Y70.80
G1 F1200 X112.41 Y70.53 E73.53765
G1 X113.03 Y69.81 E73.58539
G1 X113.26 Y69.57 E73.60193
G1 X113.99 Y68.95 E73.64978
G1 X114.26 Y68.76 E73.66620
G1 X115.08 Y68.26 E73.71399
G1 X115.37 Y68.11 E73.73046
G1 X116.26 Y67.74 E73.77824
G1 X116.57 Y67.64 E73.79455
G1 X117.50 Y67.42 E73.84232
G1 X117.83 Y67.36 E73.85895
G1 X118.70 Y67.29 E73.90264
G1 X118.86 Y67.29 E73.91082
G1 X137.03 Y67.29 E74.81708
G1 X137.19 Y67.29 E74.82537
G1 X138.08 Y67.36 E74.86961
G1 X138.41 Y67.42 E74.88643
G1 X139.34 Y67.64 E74.93435
G1 X139.65 Y67.75 E74.95052
G1 X140.53 Y68.11 E74.99807
G1 X140.82 Y68.26 E75.01436
G1 X141.63 Y68.76 E75.06177
G1 X141.90 Y68.95 E75.07844
G1 X142.59 Y69.55 E75.12387
G1 X143.51 Y69.92 E75.17331
G1 X145.10 Y71.52 E75.28563
G1 X145.75 Y73.06 E75.36915
G1 X145.75 Y75.71 E75.50141
G1 X145.15 Y77.16 E75.57960
G1 X145.15 Y110.38 E77.23716
G1 X142.69 Y112.85 E77.41079
G1 X113.21 Y112.84 E78.88151
G1 X110.75 Y110.38 E79.05507
G1 X110.75 Y75.41 E80.80013
G1 X110.75 Y75.24 E80.80832
G1 X110.82 Y74.37 E80.85201
G1 X110.87 Y74.04 E80.86863
G1 X111.10 Y73.11 E80.91640
G1 X111.20 Y72.80 E80.93272
G1 X111.56 Y71.91 E80.98050
G1 X111.71 Y71.62 E80.99696
G1 X112.21 Y70.80 E81.04475
G0 F2400 X112.55 Y71.02
G1 F1200 X112.72 Y70.78 E81.05961
G1 X113.32 Y70.08 E81.10583
G1 X113.54 Y69.87 E81.12075
G1 X114.24 Y69.27 E81.16704
G1 X114.48 Y69.09 E81.18193
G1 X115.27 Y68.61 E81.22811
G1 X115.54 Y68.47 E81.24304
G1 X116.39 Y68.12 E81.28920
G1 X116.68 Y68.02 E81.30400
G1 X117.58 Y67.81 E81.35024
G1 X117.87 Y67.76 E81.36519
G1 X118.72 Y67.69 E81.40773
G1 X118.87 Y67.69 E81.41516
G1 X137.02 Y67.69 E82.32062
G1 X137.17 Y67.69 E82.32811
G1 X138.03 Y67.76 E82.37115
G1 X138.33 Y67.81 E82.38641
G1 X139.23 Y68.03 E82.43268
G1 X139.51 Y68.12 E82.44738
G1 X140.36 Y68.48 E82.49337
G1 X140.63 Y68.61 E82.50807
G1 X141.41 Y69.09 E82.55389
G1 X141.66 Y69.27 E82.56900
G1 X142.37 Y69.88 E82.61567
G1 X142.38 Y69.89 E82.61672
G1 X143.28 Y70.27 E82.66553
G1 X144.76 Y71.74 E82.76988
G1 X145.35 Y73.14 E82.84541
G1 X145.35 Y75.63 E82.96974
G1 X144.77 Y77.03 E83.04519
G1 X144.75 Y77.05 E83.04667
G1 X144.75 Y110.22 E84.70148
G1 X142.52 Y112.44 E84.85853
G1 X113.37 Y112.44 E86.31273
G1 X111.15 Y110.22 E86.46979
G1 X111.15 Y75.41 E88.20617
G1 X111.15 Y75.26 E88.21361
G1 X111.22 Y74.41 E88.25614
G1 X111.27 Y74.12 E88.27109
G1 X111.48 Y73.22 E88.31733
G1 X111.57 Y72.94 E88.33213
G1 X111.93 Y72.08 E88.37830
G1 X112.06 Y71.81 E88.39322
G1 X112.55 Y71.02 E88.43940
G0 F2400 X112.88 Y71.25
G1 F1200 X113.04 Y71.03 E88.45268
G1 X113.62 Y70.35 E88.49734
G1 X113.81 Y70.16 E88.51068
G1 X114.49 Y69.58 E88.55541
G1 X114.70 Y69.42 E88.56869
G1 X115.47 Y68.95 E88.61335
G1 X115.71 Y68.83 E88.62671
G1 X116.53 Y68.49 E88.67131
G1 X116.78 Y68.41 E88.68452
G1 X117.65 Y68.20 E88.72912
G1 X117.92 Y68.16 E88.74261
G1 X118.75 Y68.09 E88.78400
G1 X118.88 Y68.09 E88.79059
G1 X137.01 Y68.09 E89.69530
G1 X137.15 Y68.09 E89.70199
G1 X137.98 Y68.16 E89.74383
G1 X138.25 Y68.20 E89.75747
G1 X139.12 Y68.42 E89.80215
G1 X139.37 Y68.50 E89.81533
G1 X140.20 Y68.84 E89.85974
G1 X140.43 Y68.96 E89.87293
G1 X141.19 Y69.42 E89.91720
G1 X141.41 Y69.58 E89.93066
G1 X142.09 Y70.17 E89.97571
G1 X142.15 Y70.23 E89.97998
G1 X143.06 Y70.60 E90.02883
G1 X144.43 Y71.97 E90.12528
G1 X144.95 Y73.22 E90.19287
G1 X144.95 Y75.55 E90.30926
G1 X144.43 Y76.80 E90.37672
G1 X144.35 Y76.88 E90.38251
G1 X144.35 Y110.05 E92.03732
G1 X142.35 Y112.05 E92.17786
G1 X113.54 Y112.04 E93.61555
G1 X111.55 Y110.05 E93.75603
G1 X111.55 Y75.42 E95.48377
G1 X111.55 Y75.29 E95.49036
G1 X111.61 Y74.46 E95.53175
G1 X111.66 Y74.19 E95.54524
G1 X111.87 Y73.33 E95.58984
G1 X111.95 Y73.07 E95.60305
G1 X112.29 Y72.25 E95.64765
G1 X112.41 Y72.01 E95.66102
G1 X112.88 Y71.25 E95.70567
G0 F2400 X113.21 Y71.47
G1 F1200 X113.35 Y71.28 E95.71735
G1 X113.91 Y70.62 E95.76042
G1 X114.08 Y70.45 E95.77223
G1 X114.74 Y69.89 E95.81537
G1 X114.93 Y69.75 E95.82709
G1 X115.66 Y69.30 E95.87015
G1 X115.87 Y69.20 E95.88196
G1 X116.67 Y68.87 E95.92504
G1 X116.89 Y68.79 E95.93670
G1 X117.73 Y68.59 E95.97975
G1 X117.97 Y68.56 E95.99162
G1 X118.77 Y68.49 E96.03181
G1 X118.89 Y68.49 E96.03765
G1 X137.01 Y68.49 E96.94156
G1 X137.12 Y68.49 E96.94745
G1 X137.94 Y68.56 E96.98808
G1 X138.17 Y68.59 E97.00012
G1 X139.01 Y68.80 E97.04325
G1 X139.23 Y68.87 E97.05485
