;Generated with Cura_SteamEngine 13.12
M140 S100.000000
M109 T0 S225.000000
T0
M190 S100.000000
;Sliced at: Tue 21-01-2014 13:52:33
;Basic settings: Layer height: 0.1 Walls: 0.8 Fill: 80
;Print time: #P_TIME#
;Filament used: #F_AMNT#m #F_WGHT#g
;Filament cost: #F_COST#
;M190 S100 ;Uncomment to add your own bed temperature line
;M109 S225 ;Uncomment to add your own temperature line
G21        ;metric values
G90        ;absolute positioning
M107       ;start with the fan off
G28 X0 Y0  ;move X/Y to min endstops
G28 Z0     ;move Z to min endstops
G1 Z15.0 F6000 ;move the platform down 15mm
G92 E0                  ;zero the extruded length
G1 F200 E3              ;extrude 3mm of feed stock
G92 E0                  ;zero the extruded length again
G1 F6000
;Put printing message on LCD screen
M117 Printing...

;Layer count: 304
;LAYER:0
M107
G0 F1500 X73.62 Y68.66 Z0.30
;TYPE:SKIRT
G1 F2400 E0.00000
G1 F1200 X75.16 Y67.12 E0.10816
G1 X76.15 Y66.40 E0.16941
G1 X78.08 Y65.42 E0.27743
G1 X79.24 Y65.04 E0.33859
G1 X81.08 Y64.75 E0.43139
G1 X81.69 Y64.70 E0.46207
G1 X116.36 Y64.71 E2.19131
G1 X116.97 Y64.75 E2.22189
G1 X118.76 Y65.04 E2.31232
G1 X119.92 Y65.42 E2.37342
G1 X121.85 Y66.40 E2.48144
G1 X122.84 Y67.12 E2.54269
G1 X124.38 Y68.66 E2.65085
G1 X125.10 Y69.65 E2.71210
G1 X126.08 Y71.58 E2.82012
G1 X126.46 Y72.74 E2.88128
G1 X126.75 Y74.58 E2.97408
G1 X126.80 Y75.19 E3.00476
G1 X126.79 Y109.86 E4.73400
G1 X126.74 Y110.47 E4.76458
G1 X126.46 Y112.26 E4.85501
G1 X126.08 Y113.42 E4.91611
G1 X125.10 Y115.35 E5.02413
G1 X124.38 Y116.34 E5.08538
G1 X122.84 Y117.88 E5.19354
G1 X121.85 Y118.60 E5.25479
G1 X119.92 Y119.58 E5.36281
G1 X118.76 Y119.96 E5.42397
G1 X116.92 Y120.25 E5.51677
G1 X116.31 Y120.30 E5.54745
G1 X81.64 Y120.29 E7.27669
G1 X81.03 Y120.24 E7.30727
G1 X79.24 Y119.96 E7.39770
G1 X78.08 Y119.58 E7.45880
G1 X76.15 Y118.60 E7.56682
G1 X75.16 Y117.88 E7.62807
G1 X73.62 Y116.34 E7.73623
G1 X72.90 Y115.35 E7.79748
G1 X71.92 Y113.42 E7.90550
G1 X71.54 Y112.26 E7.96666
G1 X71.25 Y110.42 E8.05946
G1 X71.20 Y109.81 E8.09014
G1 X71.21 Y75.14 E9.81938
G1 X71.25 Y74.53 E9.84996
G1 X71.54 Y72.74 E9.94039
G1 X71.92 Y71.58 E10.00149
G1 X72.90 Y69.65 E10.10951
G1 X73.62 Y68.66 E10.17076
G0 F1500 X73.93 Y68.92
G1 F1200 X75.42 Y67.43 E10.27568
G1 X76.36 Y66.74 E10.33379
G1 X78.23 Y65.79 E10.43868
G1 X79.34 Y65.43 E10.49681
G1 X81.13 Y65.14 E10.58718
G1 X81.71 Y65.10 E10.61631
G1 X116.34 Y65.11 E12.34395
G1 X116.92 Y65.15 E12.37298
G1 X118.66 Y65.43 E12.46103
G1 X119.77 Y65.79 E12.51904
G1 X121.64 Y66.74 E12.62393
G1 X122.58 Y67.43 E12.68205
G1 X124.07 Y68.92 E12.78697
G1 X124.76 Y69.86 E12.84509
G1 X125.71 Y71.73 E12.94998
G1 X126.07 Y72.84 E13.00810
G1 X126.35 Y74.63 E13.09847
G1 X126.40 Y75.21 E13.12760
G1 X126.39 Y109.84 E14.85525
G1 X126.35 Y110.42 E14.88427
G1 X126.07 Y112.16 E14.97232
G1 X125.71 Y113.27 E15.03034
G1 X124.76 Y115.14 E15.13523
G1 X124.07 Y116.08 E15.19335
G1 X122.58 Y117.57 E15.29826
G1 X121.64 Y118.26 E15.35638
G1 X119.77 Y119.21 E15.46127
G1 X118.66 Y119.57 E15.51939
G1 X116.87 Y119.85 E15.60977
G1 X116.29 Y119.90 E15.63889
G1 X81.66 Y119.89 E17.36654
G1 X81.08 Y119.85 E17.39557
G1 X79.34 Y119.57 E17.48362
G1 X78.23 Y119.21 E17.54163
G1 X76.36 Y118.26 E17.64652
G1 X75.42 Y117.57 E17.70464
G1 X73.93 Y116.08 E17.80955
G1 X73.24 Y115.14 E17.86767
G1 X72.29 Y113.27 E17.97256
G1 X71.93 Y112.16 E18.03069
G1 X71.64 Y110.37 E18.12106
G1 X71.60 Y109.79 E18.15019
G1 X71.61 Y75.16 E19.87783
G1 X71.65 Y74.58 E19.90686
G1 X71.93 Y72.84 E19.99491
G1 X72.29 Y71.73 E20.05292
G1 X73.24 Y69.86 E20.15781
G1 X73.93 Y68.92 E20.21593
G0 F1500 X74.23 Y69.18
G1 F1200 X75.68 Y67.73 E20.31774
G1 X76.57 Y67.09 E20.37272
G1 X78.39 Y66.16 E20.47449
G1 X79.43 Y65.82 E20.52945
G1 X81.18 Y65.54 E20.61750
G1 X81.72 Y65.50 E20.64498
G1 X116.32 Y65.51 E22.37103
G1 X116.87 Y65.55 E22.39855
G1 X118.57 Y65.82 E22.48428
G1 X119.61 Y66.16 E22.53911
G1 X121.43 Y67.09 E22.64085
G1 X122.32 Y67.73 E22.69583
G1 X123.77 Y69.18 E22.79764
G1 X124.41 Y70.07 E22.85261
G1 X125.34 Y71.89 E22.95438
G1 X125.68 Y72.93 E23.00935
G1 X125.96 Y74.68 E23.09740
G1 X126.00 Y75.22 E23.12487
G1 X125.99 Y109.82 E24.85092
G1 X125.95 Y110.37 E24.87845
G1 X125.68 Y112.07 E24.96417
G1 X125.34 Y113.11 E25.01900
G1 X124.41 Y114.93 E25.12074
G1 X123.77 Y115.82 E25.17572
G1 X122.32 Y117.27 E25.27753
G1 X121.43 Y117.91 E25.33251
G1 X119.61 Y118.84 E25.43427
G1 X118.57 Y119.18 E25.48924
G1 X116.82 Y119.46 E25.57729
G1 X116.27 Y119.50 E25.60476
G1 X81.68 Y119.49 E27.33082
G1 X81.13 Y119.45 E27.35834
G1 X79.43 Y119.18 E27.44407
G1 X78.39 Y118.84 E27.49889
G1 X76.57 Y117.91 E27.60064
G1 X75.68 Y117.27 E27.65561
G1 X74.23 Y115.82 E27.75742
G1 X73.59 Y114.93 E27.81240
G1 X72.66 Y113.11 E27.91417
G1 X72.32 Y112.07 E27.96913
G1 X72.04 Y110.32 E28.05718
G1 X72.00 Y109.77 E28.08466
G1 X72.01 Y75.18 E29.81071
G1 X72.05 Y74.63 E29.83823
G1 X72.32 Y72.93 E29.92396
G1 X72.66 Y71.89 E29.97879
G1 X73.59 Y70.07 E30.08053
G1 X74.23 Y69.18 E30.13551
G0 F1500 X74.54 Y69.44
G1 F1200 X75.94 Y68.04 E30.23421
G1 X76.78 Y67.43 E30.28604
G1 X78.54 Y66.53 E30.38463
G1 X79.53 Y66.21 E30.43646
G1 X81.22 Y65.94 E30.52213
G1 X81.74 Y65.90 E30.54811
G1 X116.31 Y65.91 E32.27256
G1 X116.83 Y65.95 E32.29853
G1 X118.47 Y66.21 E32.38188
G1 X119.46 Y66.53 E32.43360
G1 X121.22 Y67.43 E32.53220
G1 X122.06 Y68.04 E32.58402
G1 X123.46 Y69.44 E32.68273
G1 X124.07 Y70.28 E32.73455
G1 X124.97 Y72.04 E32.83315
G1 X125.29 Y73.03 E32.88498
G1 X125.56 Y74.72 E32.97065
G1 X125.60 Y75.24 E32.99662
G1 X125.59 Y109.81 E34.72108
G1 X125.55 Y110.33 E34.74705
G1 X125.29 Y111.97 E34.83040
G1 X124.97 Y112.96 E34.88212
G1 X124.07 Y114.72 E34.98071
G1 X123.46 Y115.56 E35.03254
G1 X122.06 Y116.96 E35.13124
G1 X121.22 Y117.57 E35.18306
G1 X119.46 Y118.47 E35.28166
G1 X118.47 Y118.79 E35.33349
G1 X116.78 Y119.06 E35.41916
G1 X116.26 Y119.10 E35.44513
G1 X81.69 Y119.09 E37.16959
G1 X81.17 Y119.05 E37.19556
G1 X79.52 Y118.79 E37.27891
G1 X78.54 Y118.47 E37.33063
G1 X76.78 Y117.57 E37.42923
G1 X75.94 Y116.96 E37.48105
G1 X74.54 Y115.56 E37.57976
G1 X73.93 Y114.72 E37.63158
G1 X73.03 Y112.96 E37.73018
G1 X72.71 Y111.97 E37.78200
G1 X72.44 Y110.28 E37.86768
G1 X72.40 Y109.76 E37.89365
G1 X72.41 Y75.19 E39.61810
G1 X72.45 Y74.67 E39.64408
G1 X72.71 Y73.02 E39.72743
G1 X73.03 Y72.04 E39.77915
G1 X73.93 Y70.28 E39.87774
G1 X74.54 Y69.44 E39.92956
G0 F1500 X74.84 Y69.70
G1 F1200 X76.20 Y68.34 E40.02503
G1 X76.99 Y67.77 E40.07374
G1 X78.69 Y66.90 E40.16922
G1 X79.62 Y66.60 E40.21789
G1 X81.27 Y66.34 E40.30124
G1 X81.76 Y66.30 E40.32557
G1 X116.29 Y66.31 E42.04852
G1 X116.78 Y66.34 E42.07284
G1 X118.38 Y66.60 E42.15387
G1 X119.31 Y66.90 E42.20245
G1 X121.01 Y67.77 E42.29793
G1 X121.80 Y68.34 E42.34664
G1 X123.16 Y69.70 E42.44211
G1 X123.73 Y70.49 E42.49082
G1 X124.60 Y72.19 E42.58630
G1 X124.90 Y73.12 E42.63497
G1 X125.16 Y74.77 E42.71832
G1 X125.20 Y75.26 E42.74265
G1 X125.19 Y109.79 E44.46560
G1 X125.15 Y110.28 E44.48992
G1 X124.90 Y111.88 E44.57095
G1 X124.60 Y112.81 E44.61953
G1 X123.73 Y114.51 E44.71500
G1 X123.16 Y115.30 E44.76372
G1 X121.80 Y116.66 E44.85918
G1 X121.01 Y117.23 E44.90790
G1 X119.31 Y118.10 E45.00338
G1 X118.38 Y118.40 E45.05205
G1 X116.73 Y118.66 E45.13540
G1 X116.24 Y118.70 E45.15972
G1 X81.71 Y118.69 E46.88268
G1 X81.22 Y118.65 E46.90700
G1 X79.62 Y118.40 E46.98803
G1 X78.69 Y118.10 E47.03661
G1 X76.99 Y117.23 E47.13208
G1 X76.20 Y116.66 E47.18080
G1 X74.84 Y115.30 E47.27626
G1 X74.27 Y114.51 E47.32498
G1 X73.40 Y112.81 E47.42046
G1 X73.10 Y111.88 E47.46913
G1 X72.84 Y110.23 E47.55248
G1 X72.80 Y109.74 E47.57680
G1 X72.81 Y75.21 E49.29976
G1 X72.84 Y74.72 E49.32408
G1 X73.10 Y73.12 E49.40511
G1 X73.40 Y72.19 E49.45369
G1 X74.27 Y70.49 E49.54916
G1 X74.84 Y69.70 E49.59788
G0 F1500 X75.15 Y69.96
G1 F1200 X76.46 Y68.65 E49.69024
G1 X77.20 Y68.11 E49.73581
G1 X78.85 Y67.27 E49.82816
G1 X79.71 Y66.99 E49.87368
G1 X81.32 Y66.74 E49.95465
G1 X81.77 Y66.70 E49.97743
G1 X116.28 Y66.71 E51.69879
G1 X116.73 Y66.74 E51.72156
G1 X118.29 Y66.99 E51.80021
G1 X119.15 Y67.27 E51.84565
G1 X120.80 Y68.11 E51.93798
G1 X121.54 Y68.65 E51.98355
G1 X122.85 Y69.96 E52.07591
G1 X123.39 Y70.70 E52.12148
G1 X124.23 Y72.35 E52.21383
G1 X124.51 Y73.21 E52.25935
G1 X124.76 Y74.82 E52.34032
G1 X124.80 Y75.27 E52.36310
G1 X124.79 Y109.78 E54.08446
G1 X124.76 Y110.23 E54.10723
G1 X124.51 Y111.79 E54.18588
G1 X124.23 Y112.65 E54.23132
G1 X123.39 Y114.30 E54.32365
G1 X122.85 Y115.04 E54.36922
G1 X121.54 Y116.35 E54.46158
G1 X120.80 Y116.89 E54.50715
G1 X119.15 Y117.73 E54.59950
G1 X118.29 Y118.01 E54.64502
G1 X116.68 Y118.26 E54.72599
G1 X116.23 Y118.30 E54.74877
G1 X81.72 Y118.29 E56.47013
G1 X81.27 Y118.26 E56.49290
G1 X79.71 Y118.01 E56.57155
G1 X78.85 Y117.73 E56.61699
G1 X77.20 Y116.89 E56.70932
G1 X76.46 Y116.35 E56.75489
G1 X75.15 Y115.04 E56.84725
G1 X74.61 Y114.30 E56.89282
G1 X73.77 Y112.65 E56.98517
G1 X73.49 Y111.79 E57.03069
G1 X73.24 Y110.18 E57.11166
G1 X73.20 Y109.73 E57.13444
G1 X73.21 Y75.22 E58.85580
G1 X73.24 Y74.77 E58.87857
G1 X73.49 Y73.21 E58.95722
G1 X73.77 Y72.35 E59.00266
G1 X74.61 Y70.70 E59.09499
G1 X75.15 Y69.96 E59.14056
G0 F1500 X75.45 Y70.22
G1 F1200 X76.72 Y68.95 E59.22982
G1 X77.41 Y68.45 E59.27221
G1 X79.00 Y67.64 E59.36139
G1 X79.81 Y67.38 E59.40378
G1 X81.36 Y67.13 E59.48243
G1 X81.79 Y67.10 E59.50365
G1 X116.26 Y67.11 E61.22342
G1 X116.68 Y67.14 E61.24464
G1 X118.19 Y67.38 E61.32092
G1 X119.00 Y67.64 E61.36326
G1 X120.59 Y68.45 E61.45244
G1 X121.28 Y68.95 E61.49483
G1 X122.55 Y70.22 E61.58409
G1 X123.05 Y70.91 E61.62648
G1 X123.86 Y72.50 E61.71566
G1 X124.12 Y73.31 E61.75805
G1 X124.37 Y74.86 E61.83670
G1 X124.40 Y75.29 E61.85792
G1 X124.39 Y109.76 E63.57769
G1 X124.36 Y110.18 E63.59891
G1 X124.12 Y111.69 E63.67519
G1 X123.86 Y112.50 E63.71753
G1 X123.05 Y114.09 E63.80671
G1 X122.55 Y114.78 E63.84910
G1 X121.28 Y116.05 E63.93836
G1 X120.59 Y116.55 E63.98075
G1 X119.00 Y117.36 E64.06993
G1 X118.19 Y117.62 E64.11232
G1 X116.64 Y117.87 E64.19097
G1 X116.21 Y117.90 E64.21219
G1 X81.74 Y117.89 E65.93196
G1 X81.32 Y117.86 E65.95318
G1 X79.81 Y117.62 E66.02946
G1 X79.00 Y117.36 E66.07180
G1 X77.41 Y116.55 E66.16098
G1 X76.72 Y116.05 E66.20338
G1 X75.45 Y114.78 E66.29263
G1 X74.95 Y114.09 E66.33502
G1 X74.14 Y112.50 E66.42420
G1 X73.88 Y111.69 E66.46659
G1 X73.63 Y110.14 E66.54524
G1 X73.60 Y109.71 E66.56647
G1 X73.61 Y75.24 E68.28623
G1 X73.64 Y74.82 E68.30745
G1 X73.88 Y73.31 E68.38373
G1 X74.14 Y72.50 E68.42607
G1 X74.95 Y70.91 E68.51526
G1 X75.45 Y70.22 E68.55765
G0 F1500 X75.76 Y70.48
G1 F1200 X76.98 Y69.26 E68.64379
G1 X77.62 Y68.80 E68.68305
G1 X79.15 Y68.01 E68.76911
G1 X79.90 Y67.77 E68.80835
G1 X81.41 Y67.53 E68.88462
G1 X81.80 Y67.50 E68.90429
G1 X116.24 Y67.51 E70.62246
G1 X116.64 Y67.54 E70.64213
G1 X118.10 Y67.77 E70.71608
G1 X118.85 Y68.01 E70.75522
G1 X120.38 Y68.80 E70.84128
G1 X121.02 Y69.26 E70.88054
G1 X122.24 Y70.48 E70.96669
G1 X122.70 Y71.12 E71.00595
G1 X123.49 Y72.65 E71.09200
G1 X123.73 Y73.40 E71.13124
G1 X123.97 Y74.91 E71.20751
G1 X124.00 Y75.30 E71.22719
G1 X123.99 Y109.74 E72.94535
G1 X123.96 Y110.14 E72.96502
G1 X123.73 Y111.60 E73.03897
G1 X123.49 Y112.35 E73.07812
G1 X122.70 Y113.88 E73.16417
G1 X122.24 Y114.52 E73.20343
G1 X121.02 Y115.74 E73.28958
G1 X120.38 Y116.20 E73.32884
G1 X118.85 Y116.99 E73.41490
G1 X118.10 Y117.23 E73.45414
G1 X116.59 Y117.47 E73.53041
G1 X116.19 Y117.50 E73.55008
G1 X81.76 Y117.49 E75.26825
G1 X81.36 Y117.46 E75.28792
G1 X79.90 Y117.23 E75.36187
G1 X79.15 Y116.99 E75.40101
G1 X77.62 Y116.20 E75.48707
G1 X76.98 Y115.74 E75.52633
G1 X75.76 Y114.52 E75.61247
G1 X75.30 Y113.88 E75.65173
G1 X74.51 Y112.35 E75.73779
G1 X74.27 Y111.60 E75.77703
G1 X74.03 Y110.09 E75.85330
G1 X74.00 Y109.69 E75.87297
G1 X74.01 Y75.26 E77.59114
G1 X74.04 Y74.86 E77.61081
G1 X74.27 Y73.40 E77.68476
G1 X74.51 Y72.65 E77.72390
G1 X75.30 Y71.12 E77.80996
G1 X75.76 Y70.48 E77.84922
G0 F1500 X76.06 Y70.74
G1 F1200 X77.24 Y69.56 E77.93212
G1 X77.83 Y69.14 E77.96831
G1 X79.31 Y68.38 E78.05124
G1 X80.00 Y68.16 E78.08732
G1 X81.46 Y67.93 E78.16123
G1 X81.82 Y67.90 E78.17929
G1 X116.23 Y67.91 E79.89597
G1 X116.59 Y67.94 E79.91403
G1 X118.01 Y68.16 E79.98556
G1 X118.69 Y68.38 E80.02160
G1 X120.17 Y69.14 E80.10453
G1 X120.76 Y69.56 E80.14072
G1 X121.94 Y70.74 E80.22362
G1 X122.36 Y71.33 E80.25980
G1 X123.12 Y72.81 E80.34274
G1 X123.34 Y73.50 E80.37882
G1 X123.57 Y74.96 E80.45272
G1 X123.60 Y75.32 E80.47079
G1 X123.59 Y109.73 E82.18746
G1 X123.56 Y110.09 E82.20553
G1 X123.34 Y111.51 E82.27706
G1 X123.12 Y112.19 E82.31309
G1 X122.36 Y113.67 E82.39603
G1 X121.94 Y114.26 E82.43221
G1 X120.76 Y115.44 E82.51511
G1 X120.17 Y115.86 E82.55130
G1 X118.69 Y116.62 E82.63423
G1 X118.00 Y116.84 E82.67032
G1 X116.54 Y117.07 E82.74422
G1 X116.18 Y117.10 E82.76229
G1 X81.77 Y117.09 E84.47896
G1 X81.41 Y117.06 E84.49702
G1 X79.99 Y116.84 E84.56855
G1 X79.31 Y116.62 E84.60459
G1 X77.83 Y115.86 E84.68752
G1 X77.24 Y115.44 E84.72371
G1 X76.06 Y114.26 E84.80661
G1 X75.64 Y113.67 E84.84280
G1 X74.88 Y112.19 E84.92573
G1 X74.66 Y111.50 E84.96181
G1 X74.43 Y110.04 E85.03571
G1 X74.40 Y109.68 E85.05378
G1 X74.41 Y75.27 E86.77045
G1 X74.44 Y74.91 E86.78852
G1 X74.66 Y73.49 E86.86005
G1 X74.88 Y72.81 E86.89608
G1 X75.64 Y71.33 E86.97902
G1 X76.06 Y70.74 E87.01520
G0 F1500 X76.37 Y71.00
G1 F1200 X77.50 Y69.87 E87.09500
G1 X78.03 Y69.48 E87.12797
G1 X79.46 Y68.75 E87.20779
G1 X80.09 Y68.55 E87.24073
G1 X81.50 Y68.33 E87.31230
G1 X81.83 Y68.30 E87.32882
G1 X116.21 Y68.31 E89.04389
G1 X116.54 Y68.33 E89.06036
G1 X117.91 Y68.55 E89.12956
G1 X118.54 Y68.75 E89.16252
G1 X119.96 Y69.48 E89.24231
G1 X120.50 Y69.87 E89.27528
G1 X121.63 Y71.00 E89.35508
G1 X122.02 Y71.53 E89.38805
G1 X122.75 Y72.96 E89.46786
G1 X122.95 Y73.59 E89.50080
G1 X123.17 Y75.00 E89.57238
G1 X123.20 Y75.33 E89.58889
G1 X123.19 Y109.71 E91.30397
G1 X123.17 Y110.04 E91.32043
G1 X122.95 Y111.41 E91.38964
G1 X122.74 Y112.04 E91.42259
G1 X122.02 Y113.46 E91.50238
G1 X121.63 Y114.00 E91.53535
G1 X120.50 Y115.13 E91.61515
G1 X119.96 Y115.52 E91.64812
G1 X118.54 Y116.25 E91.72794
G1 X117.91 Y116.45 E91.76088
G1 X116.49 Y116.67 E91.83245
G1 X116.16 Y116.70 E91.84897
G1 X81.79 Y116.69 E93.56404
G1 X81.46 Y116.67 E93.58051
G1 X80.09 Y116.45 E93.64971
G1 X79.46 Y116.24 E93.68267
G1 X78.03 Y115.52 E93.76246
G1 X77.50 Y115.13 E93.79543
G1 X76.37 Y114.00 E93.87523
G1 X75.98 Y113.46 E93.90820
G1 X75.25 Y112.04 E93.98801
G1 X75.05 Y111.41 E94.02095
G1 X74.83 Y109.99 E94.09253
G1 X74.80 Y109.66 E94.10904
G1 X74.81 Y75.29 E95.82412
G1 X74.83 Y74.96 E95.84058
G1 X75.05 Y73.59 E95.90979
G1 X75.25 Y72.96 E95.94274
G1 X75.98 Y71.53 E96.02253
G1 X76.37 Y71.00 E96.05550
G0 F1500 X76.67 Y71.26
G1 F1200 X77.76 Y70.17 E96.13220
G1 X78.25 Y69.82 E96.16206
G1 X79.61 Y69.13 E96.23870
G1 X80.18 Y68.94 E96.26850
G1 X81.55 Y68.72 E96.33770
G1 X81.85 Y68.70 E96.35267
G1 X116.20 Y68.71 E98.06615
G1 X116.49 Y68.73 E98.08106
G1 X117.82 Y68.94 E98.14789
G1 X118.39 Y69.13 E98.17769
G1 X119.75 Y69.82 E98.25433
G1 X120.24 Y70.17 E98.28419
G1 X121.33 Y71.26 E98.36089
G1 X121.68 Y71.75 E98.39074
G1 X122.37 Y73.11 E98.46739
G1 X122.56 Y73.68 E98.49719
G1 X122.78 Y75.05 E98.56639
G1 X122.80 Y75.35 E98.58136
G1 X122.79 Y109.70 E100.29483
G1 X122.77 Y109.99 E100.30975
G1 X122.56 Y111.32 E100.37658
G1 X122.37 Y111.89 E100.40638
G1 X121.68 Y113.25 E100.48302
G1 X121.33 Y113.74 E100.51288
G1 X120.24 Y114.83 E100.58957
G1 X119.75 Y115.18 E100.61943
G1 X118.39 Y115.87 E100.69607
G1 X117.82 Y116.06 E100.72588
G1 X116.45 Y116.28 E100.79508
G1 X116.15 Y116.30 E100.81004
G1 X81.80 Y116.29 E102.52352
G1 X81.50 Y116.27 E102.53843
G1 X80.18 Y116.06 E102.60526
G1 X79.61 Y115.87 E102.63507
G1 X78.25 Y115.18 E102.71171
G1 X77.76 Y114.83 E102.74157
G1 X76.67 Y113.74 E102.81826
G1 X76.32 Y113.25 E102.84812
G1 X75.63 Y111.89 E102.92476
G1 X75.44 Y111.32 E102.95456
G1 X75.22 Y109.95 E103.02377
G1 X75.20 Y109.65 E103.03873
G1 X75.21 Y75.30 E104.75221
G1 X75.23 Y75.00 E104.76712
G1 X75.44 Y73.68 E104.83395
G1 X75.63 Y73.11 E104.86375
G1 X76.32 Y71.75 E104.94040
G1 X76.67 Y71.26 E104.97025
G0 F1500 X76.98 Y71.52
