;Generated with Cura_SteamEngine 13.12
M140 S110.000000
M109 T0 S235.000000
T0
M190 S110.000000
;Sliced at: Fri 24-01-2014 13:20:14
;Basic settings: Layer height: 0.15 Walls: 2 Fill: 60
;Print time: #P_TIME#
;Filament used: #F_AMNT#m #F_WGHT#g
;Filament cost: #F_COST#
;M190 S110 ;Uncomment to add your own bed temperature line
;M109 S235 ;Uncomment to add your own temperature line
G21        ;metric values
G90        ;absolute positioning
M107       ;start with the fan off
G28 X0 Y0  ;move X/Y to min endstops
G28 Z0     ;move Z to min endstops
G1 Z15.0 F12000 ;move the platform down 15mm
G92 E0                  ;zero the extruded length
G1 F200 E3              ;extrude 3mm of feed stock
G92 E0                  ;zero the extruded length again
G1 F12000
;Put printing message on LCD screen
M117 Printing...

;Layer count: 120
;LAYER:0
M107
G0 F3600 X89.69 Y83.98 Z0.20
;TYPE:SKIRT
G1 F2400 E0.00000
G1 F900 X89.96 Y83.69 E0.01296
G1 X91.74 Y82.18 E0.09069
G1 X92.06 Y81.96 E0.10372
G1 X94.13 Y80.87 E0.18144
G1 X94.49 Y80.72 E0.19437
G1 X96.74 Y80.10 E0.27208
G1 X97.13 Y80.03 E0.28509
G1 X99.46 Y79.91 E0.36276
G1 X99.85 Y79.93 E0.37575
G1 X102.16 Y80.31 E0.45347
G1 X102.53 Y80.41 E0.46642
G1 X104.70 Y81.28 E0.54414
G1 X105.05 Y81.46 E0.55713
G1 X106.98 Y82.77 E0.63484
G1 X107.28 Y83.02 E0.64787
G1 X108.89 Y84.72 E0.72558
G1 X109.12 Y85.03 E0.73854
G1 X110.33 Y87.03 E0.81624
G1 X110.49 Y87.39 E0.82920
G1 X111.24 Y89.60 E0.90695
G1 X111.32 Y89.98 E0.91992
G1 X111.57 Y92.31 E0.99768
G1 X111.57 Y92.70 E1.01078
G1 X111.31 Y95.04 E1.08915
G1 X111.23 Y95.42 E1.10206
G1 X110.49 Y97.62 E1.17911
G1 X110.32 Y97.97 E1.19220
G1 X109.10 Y99.99 E1.27059
G1 X108.87 Y100.30 E1.28357
G1 X107.26 Y101.99 E1.36127
G1 X106.96 Y102.25 E1.37433
G1 X105.02 Y103.55 E1.45198
G1 X104.68 Y103.73 E1.46482
G1 X102.53 Y104.59 E1.54179
G1 X102.15 Y104.69 E1.55486
G1 X101.88 Y104.74 E1.56386
G1 X101.88 Y104.74 E1.56390
G1 X99.85 Y105.07 E1.63251
G1 X99.45 Y105.09 E1.64564
G1 X97.10 Y104.96 E1.72399
G1 X96.72 Y104.90 E1.73690
G1 X94.49 Y104.28 E1.81385
G1 X94.13 Y104.13 E1.82678
G1 X92.06 Y103.04 E1.90446
G1 X91.74 Y102.82 E1.91749
G1 X89.96 Y101.31 E1.99521
G1 X89.69 Y101.02 E2.00818
G1 X88.28 Y99.16 E2.08593
G1 X88.08 Y98.83 E2.09887
G1 X87.10 Y96.71 E2.17658
G1 X86.97 Y96.34 E2.18958
G1 X86.47 Y94.06 E2.26726
G1 X86.43 Y93.67 E2.28024
G1 X86.43 Y91.33 E2.35797
G1 X86.47 Y90.94 E2.37095
G1 X86.97 Y88.66 E2.44862
G1 X87.10 Y88.29 E2.46162
G1 X88.08 Y86.17 E2.53933
G1 X88.28 Y85.84 E2.55227
G1 X89.69 Y83.98 E2.63003
G0 F3600 X90.00 Y84.24
G1 F900 X90.23 Y83.98 E2.64158
G1 X91.98 Y82.50 E2.71786
G1 X92.27 Y82.30 E2.72943
G1 X94.30 Y81.23 E2.80568
G1 X94.62 Y81.10 E2.81721
G1 X96.83 Y80.49 E2.89347
G1 X97.17 Y80.43 E2.90503
G1 X99.46 Y80.31 E2.98127
G1 X99.81 Y80.33 E2.99279
G1 X102.07 Y80.70 E3.06910
G1 X102.40 Y80.79 E3.08059
G1 X104.53 Y81.64 E3.15689
G1 X104.84 Y81.80 E3.16841
G1 X106.74 Y83.09 E3.24468
G1 X107.00 Y83.31 E3.25627
G1 X108.58 Y84.98 E3.33254
G1 X108.79 Y85.25 E3.34406
G1 X109.97 Y87.22 E3.42030
G1 X110.12 Y87.53 E3.43183
G1 X110.85 Y89.71 E3.50814
G1 X110.93 Y90.05 E3.51972
G1 X111.17 Y92.33 E3.59599
G1 X111.17 Y92.68 E3.60763
G1 X110.92 Y94.98 E3.68456
G1 X110.84 Y95.31 E3.69602
G1 X110.12 Y97.47 E3.77163
G1 X109.97 Y97.78 E3.78329
G1 X108.77 Y99.77 E3.86025
G1 X108.56 Y100.04 E3.87176
G1 X106.98 Y101.70 E3.94803
G1 X106.72 Y101.93 E3.95959
G1 X104.82 Y103.21 E4.03584
G1 X104.51 Y103.37 E4.04725
G1 X102.40 Y104.21 E4.12279
G1 X102.07 Y104.30 E4.13439
G1 X101.81 Y104.34 E4.14288
G1 X99.81 Y104.67 E4.21059
G1 X99.45 Y104.69 E4.22225
G1 X97.15 Y104.56 E4.29916
G1 X96.81 Y104.51 E4.31063
G1 X94.62 Y103.90 E4.38617
G1 X94.30 Y103.77 E4.39766
G1 X92.27 Y102.69 E4.47391
G1 X91.98 Y102.50 E4.48548
G1 X90.23 Y101.02 E4.56177
G1 X90.00 Y100.76 E4.57332
G1 X88.61 Y98.94 E4.64961
G1 X88.43 Y98.64 E4.66112
G1 X87.47 Y96.56 E4.73737
G1 X87.36 Y96.23 E4.74892
G1 X86.86 Y93.99 E4.82517
G1 X86.83 Y93.65 E4.83671
G1 X86.83 Y91.35 E4.91298
G1 X86.86 Y91.01 E4.92452
G1 X87.36 Y88.77 E5.00077
G1 X87.47 Y88.44 E5.01232
G1 X88.43 Y86.36 E5.08857
G1 X88.61 Y86.06 E5.10008
G1 X90.00 Y84.24 E5.17637
G1 F2400 E3.67637
G0 F3600 X93.75 Y87.56
;TYPE:WALL-INNER
G1 F2400 E5.17637
G1 F900 X94.94 Y86.55 E5.22804
G1 X96.31 Y85.82 E5.27984
G1 X97.81 Y85.41 E5.33155
G1 X99.36 Y85.32 E5.38317
G1 X100.90 Y85.57 E5.43487
G1 X102.34 Y86.15 E5.48657
G1 X103.63 Y87.02 E5.53829
G1 X104.70 Y88.15 E5.59010
G1 X105.50 Y89.48 E5.64162
G1 X106.00 Y90.96 E5.69357
G1 X106.16 Y92.50 E5.74499
G1 X105.99 Y94.06 E5.79746
G1 X105.50 Y95.52 E5.84846
G1 X104.69 Y96.86 E5.90078
G1 X103.72 Y97.87 E5.94719
G1 X103.72 Y95.25 E6.03434
G1 X102.83 Y94.36 E6.07615
G1 X103.40 Y92.82 E6.13094
G1 X103.40 Y92.18 E6.15206
G1 X102.57 Y89.90 E6.23290
G1 X102.16 Y89.41 E6.25400
G1 X100.05 Y88.20 E6.33481
G1 X99.43 Y88.09 E6.35596
G1 X97.04 Y88.51 E6.43675
G1 X96.49 Y88.83 E6.45788
G1 X94.92 Y90.69 E6.53874
G1 X94.71 Y91.28 E6.55982
G1 X94.71 Y93.71 E6.64061
G1 X94.92 Y94.31 E6.66170
G1 X95.03 Y94.44 E6.66748
G1 X94.22 Y95.25 E6.70563
G1 X94.22 Y97.84 E6.79174
G1 X93.75 Y97.44 E6.81224
G1 X92.81 Y96.21 E6.86387
G1 X92.16 Y94.79 E6.91572
G1 X91.83 Y93.28 E6.96735
G1 X91.83 Y91.72 E7.01903
G1 X92.16 Y90.21 E7.07067
G1 X92.81 Y88.79 E7.12251
G1 X93.75 Y87.56 E7.17414
G0 F3600 X93.46 Y87.28
G1 F900 X94.71 Y86.22 E7.22867
G1 X96.16 Y85.45 E7.28320
G1 X97.75 Y85.01 E7.33788
G1 X99.38 Y84.92 E7.39237
G1 X101.01 Y85.19 E7.44708
G1 X102.53 Y85.79 E7.50164
G1 X103.89 Y86.71 E7.55619
G1 X105.02 Y87.91 E7.61085
G1 X105.86 Y89.31 E7.66542
G1 X106.39 Y90.87 E7.72004
G1 X106.56 Y92.50 E7.77451
G1 X106.38 Y94.15 E7.82995
G1 X105.86 Y95.69 E7.88370
G1 X105.01 Y97.11 E7.93896
G1 X103.88 Y98.29 E7.99344
G1 X103.32 Y98.67 E8.01561
G1 X103.32 Y95.42 E8.12357
G1 X102.50 Y94.60 E8.16217
G1 X102.32 Y94.60 E8.16812
G1 X103.00 Y92.75 E8.23371
G1 X103.00 Y92.25 E8.25018
G1 X102.22 Y90.10 E8.32628
G1 X101.90 Y89.72 E8.34271
G1 X99.92 Y88.58 E8.41884
G1 X99.43 Y88.49 E8.43526
G1 X97.18 Y88.89 E8.51135
G1 X96.75 Y89.14 E8.52780
G1 X95.28 Y90.89 E8.60396
G1 X95.11 Y91.36 E8.62038
G1 X95.11 Y93.64 E8.69645
G1 X95.28 Y94.11 E8.71287
G1 X95.69 Y94.60 E8.73428
G1 X95.44 Y94.60 E8.74247
G1 X94.62 Y95.42 E8.78104
G1 X94.62 Y98.71 E8.89040
G1 X93.46 Y97.72 E8.94103
G1 X92.47 Y96.41 E8.99569
G1 X91.78 Y94.92 E9.05043
G1 X91.43 Y93.32 E9.10485
G1 X91.43 Y91.68 E9.15953
G1 X91.78 Y90.08 E9.21395
G1 X92.47 Y88.59 E9.26869
G1 X93.46 Y87.28 E9.32335
G0 F3600 X93.17 Y87.00
G1 F900 X94.48 Y85.89 E9.38071
G1 X96.02 Y85.07 E9.43841
G1 X97.68 Y84.61 E9.49568
G1 X99.41 Y84.52 E9.55330
G1 X101.11 Y84.80 E9.61080
G1 X102.72 Y85.44 E9.66822
G1 X104.15 Y86.41 E9.72574
G1 X105.34 Y87.66 E9.78321
G1 X106.23 Y89.14 E9.84073
G1 X106.78 Y90.78 E9.89829
G1 X106.97 Y92.50 E9.95563
G1 X106.78 Y94.24 E10.01389
G1 X106.23 Y95.85 E10.07058
G1 X105.33 Y97.35 E10.12873
G1 X104.13 Y98.60 E10.18630
G1 X102.91 Y99.43 E10.23540
G1 X102.92 Y99.41 E10.23610
G1 X102.92 Y95.58 E10.36345
G1 X102.34 Y95.00 E10.39099
G1 X101.57 Y95.00 E10.41637
G1 X101.64 Y94.96 E10.41876
G1 X101.86 Y94.69 E10.43049
G1 X102.60 Y92.68 E10.50192
G1 X102.60 Y92.32 E10.51366
G1 X101.86 Y90.31 E10.58509
G1 X101.64 Y90.03 E10.59683
G1 X99.78 Y88.96 E10.66828
G1 X99.43 Y88.90 E10.68003
G1 X97.31 Y89.27 E10.75143
G1 X97.01 Y89.45 E10.76316
G1 X95.63 Y91.09 E10.83464
G1 X95.51 Y91.43 E10.84635
G1 X95.51 Y93.57 E10.91776
G1 X95.63 Y93.90 E10.92947
G1 X96.55 Y95.00 E10.97707
G1 X95.61 Y95.00 E11.00826
G1 X95.02 Y95.58 E11.03578
G1 X95.02 Y99.40 E11.16267
G1 X94.48 Y99.11 E11.18295
G1 X93.17 Y98.00 E11.24031
G1 X92.13 Y96.62 E11.29775
G1 X91.40 Y95.05 E11.35532
G1 X91.03 Y93.36 E11.41285
G1 X91.03 Y91.64 E11.47025
G1 X91.40 Y89.95 E11.52778
G1 X92.13 Y88.38 E11.58535
G1 X93.17 Y87.00 E11.64279
G0 F3600 X95.44 Y99.24
G0 X96.28 Y100.00
G1 F900 X101.62 Y100.00 E11.82034
G1 X101.12 Y100.20 E11.83828
G1 X99.40 Y100.48 E11.89608
G1 X97.66 Y100.38 E11.95408
G1 X96.28 Y100.00 E12.00176
G0 F3600 X95.87 Y100.30
G1 F900 X94.26 Y99.45 E12.06219
G1 X92.88 Y98.28 E12.12241
G1 X91.78 Y96.83 E12.18289
G1 X91.02 Y95.18 E12.24339
G1 X90.63 Y93.41 E12.30367
G1 X90.63 Y91.59 E12.36407
G1 X91.02 Y89.82 E12.42435
G1 X91.78 Y88.17 E12.48484
G1 X92.88 Y86.72 E12.54533
G1 X94.26 Y85.55 E12.60554
G1 X95.87 Y84.70 E12.66598
G1 X97.62 Y84.21 E12.72640
G1 X99.43 Y84.12 E12.78672
G1 X101.22 Y84.41 E12.84718
G1 X102.90 Y85.08 E12.90739
G1 X104.41 Y86.10 E12.96790
G1 X105.66 Y87.42 E13.02842
G1 X106.59 Y88.97 E13.08854
G1 X107.18 Y90.70 E13.14923
G1 X107.37 Y92.50 E13.20942
G1 X107.17 Y94.32 E13.27049
G1 X106.59 Y96.03 E13.33023
G1 X105.65 Y97.59 E13.39114
G1 X104.40 Y98.91 E13.45153
G1 X102.89 Y99.93 E13.51210
G1 X101.22 Y100.59 E13.57167
G1 X101.20 Y100.59 E13.57224
G1 X99.43 Y100.88 E13.63210
G1 X97.60 Y100.78 E13.69309
G1 X95.87 Y100.30 E13.75286
G0 F3600 X95.78 Y99.60
G1 F900 X102.17 Y99.60 E13.96559
G1 X102.52 Y99.25 E13.98214
G1 X102.52 Y95.75 E14.09846
G1 X102.17 Y95.40 E14.11499
G1 X100.08 Y95.40 E14.18447
G1 X101.38 Y94.65 E14.23412
G1 X101.51 Y94.49 E14.24118
G1 X102.20 Y92.61 E14.30794
G1 X102.20 Y92.39 E14.31496
G1 X101.51 Y90.51 E14.38172
G1 X101.38 Y90.34 E14.38878
G1 X99.64 Y89.34 E14.45552
G1 X99.43 Y89.31 E14.46255
G1 X97.45 Y89.65 E14.52929
G1 X97.27 Y89.76 E14.53635
G1 X95.98 Y91.30 E14.60314
G1 X95.91 Y91.50 E14.61016
G1 X95.91 Y93.50 E14.67685
G1 X95.98 Y93.70 E14.68388
G1 X97.27 Y95.24 E14.75067
G1 X97.45 Y95.34 E14.75773
G1 X97.76 Y95.40 E14.76823
G1 X95.78 Y95.40 E14.83439
G1 X95.42 Y95.75 E14.85090
G1 X95.42 Y99.25 E14.96721
G1 X95.78 Y99.60 E14.98374
G0 F3600 X95.94 Y99.20
;TYPE:WALL-OUTER
G1 F900 X102.01 Y99.20 E15.18543
G1 X102.12 Y99.08 E15.19098
G1 X102.12 Y95.92 E15.29625
G1 X102.01 Y95.80 E15.30178
G1 X95.94 Y95.80 E15.50347
G1 X95.82 Y95.92 E15.50897
G1 X95.82 Y99.08 E15.61424
G1 X95.94 Y99.20 E15.61976
G0 F3600 X95.72 Y100.67
G1 F900 X94.03 Y99.78 E15.68322
G1 X92.59 Y98.55 E15.74629
G1 X91.44 Y97.04 E15.80955
G1 X90.64 Y95.31 E15.87305
G1 X90.23 Y93.45 E15.93612
G1 X90.23 Y91.55 E15.99952
G1 X90.64 Y89.69 E16.06259
G1 X91.44 Y87.96 E16.12609
G1 X92.59 Y86.45 E16.18934
G1 X94.03 Y85.22 E16.25242
G1 X95.72 Y84.33 E16.31587
G1 X97.55 Y83.82 E16.37915
G1 X99.45 Y83.72 E16.44247
G1 X101.33 Y84.02 E16.50559
G1 X103.09 Y84.73 E16.56893
G1 X104.67 Y85.80 E16.63225
G1 X105.98 Y87.18 E16.69559
G1 X106.96 Y88.80 E16.75864
G1 X107.57 Y90.61 E16.82212
G1 X107.77 Y92.50 E16.88533
G1 X107.56 Y94.41 E16.94938
G1 X106.96 Y96.19 E17.01186
G1 X105.97 Y97.84 E17.07571
G1 X104.65 Y99.22 E17.13907
G1 X103.08 Y100.28 E17.20237
G1 X101.33 Y100.98 E17.26502
G1 X101.27 Y100.99 E17.26694
G1 X99.45 Y101.29 E17.32812
G1 X97.53 Y101.18 E17.39214
G1 X95.72 Y100.67 E17.45473
G0 F3600 X95.83 Y100.39
G0 X95.44 Y99.24
G0 X95.44 Y95.76
G0 X95.78 Y95.42
G0 X97.44 Y95.22
G0 X97.59 Y94.96
G1 F900 X99.43 Y95.29 E17.51674
G1 X99.50 Y95.28 E17.51911
G1 X101.11 Y94.34 E17.58118
G1 X101.16 Y94.29 E17.58351
G1 X101.80 Y92.53 E17.64560
G1 X101.80 Y92.47 E17.64790
G1 X101.16 Y90.71 E17.70999
G1 X101.11 Y90.66 E17.71232
G1 X99.50 Y89.72 E17.77439
G1 X99.43 Y89.71 E17.77676
G1 X97.59 Y90.04 E17.83877
G1 X97.53 Y90.07 E17.84111
G1 X96.33 Y91.50 E17.90320
G1 X96.31 Y91.57 E17.90554
G1 X96.31 Y93.43 E17.96757
G1 X96.33 Y93.50 E17.96990
G1 X97.53 Y94.93 E18.03199
G1 X97.59 Y94.96 E18.03433
G0 F3600 X97.44 Y95.22
G0 X94.78 Y94.50
;TYPE:FILL
G1 F900 X91.97 Y91.69 E18.16632
G0 F3600 X92.08 Y91.23
G1 F900 X94.57 Y93.72 E18.28339
G0 F3600 X94.57 Y93.15
G1 F900 X92.18 Y90.76 E18.39569
G0 F3600 X92.28 Y90.30
G1 F900 X94.57 Y92.59 E18.50317
G0 F3600 X94.57 Y92.02
G1 F900 X92.45 Y89.91 E18.60258
G0 F3600 X92.63 Y89.52
G1 F900 X94.57 Y91.45 E18.69360
G0 F3600 X94.66 Y90.99
G1 F900 X92.81 Y89.13 E18.78076
G0 F3600 X93.01 Y88.77
G1 F900 X94.83 Y90.58 E18.86632
G0 F3600 X95.08 Y90.28
G1 F900 X93.25 Y88.44 E18.95254
G0 F3600 X93.50 Y88.12
G1 F900 X95.34 Y89.97 E19.03942
G0 F3600 X95.60 Y89.66
G1 F900 X93.74 Y87.80 E19.12690
G0 F3600 X94.02 Y87.51
G1 F900 X95.86 Y89.35 E19.21352
G0 F3600 X96.12 Y89.05
G1 F900 X94.32 Y87.25 E19.29791
G0 F3600 X94.63 Y86.99
G1 F900 X96.38 Y88.74 E19.38006
G0 F3600 X96.73 Y88.52
G1 F900 X94.94 Y86.73 E19.46430
G0 F3600 X95.29 Y86.52
G1 F900 X97.12 Y88.35 E19.55028
G0 F3600 X97.60 Y88.27
G1 F900 X95.66 Y86.33 E19.64156
G0 F3600 X96.03 Y86.13
G1 F900 X98.08 Y88.18 E19.73801
G0 F3600 X98.56 Y88.09
G1 F900 X96.41 Y85.94 E19.83937
G0 F3600 X96.85 Y85.82
G1 F900 X99.04 Y88.01 E19.94250
G0 F3600 X99.56 Y87.97
G1 F900 X97.29 Y85.69 E20.04937
G0 F3600 X97.73 Y85.57
G1 F900 X100.40 Y88.23 E20.17461
G0 F3600 X101.73 Y89.01
G1 F900 X98.25 Y85.52 E20.33853
G0 F3600 X98.79 Y85.49
G1 F900 X106.00 Y92.70 E20.67778
G0 F3600 X105.94 Y93.21
G1 F900 X102.77 Y90.04 E20.82720
G0 F3600 X103.09 Y90.93
G1 F900 X105.89 Y93.72 E20.95876
G0 F3600 X105.80 Y94.20
G1 F900 X103.41 Y91.81 E21.07089
G0 F3600 X103.54 Y92.50
G1 F900 X105.65 Y94.62 E21.17045
G0 F3600 X105.51 Y95.04
G1 F900 X103.47 Y93.01 E21.26617
G0 F3600 X103.32 Y93.42
G1 F900 X105.36 Y95.47 E21.36219
G0 F3600 X105.15 Y95.82
G1 F900 X103.17 Y93.84 E21.45533
G0 F3600 X103.02 Y94.25
G1 F900 X104.94 Y96.17 E21.54550
G0 F3600 X104.73 Y96.52
G1 F900 X103.86 Y95.66 E21.58616
G0 F3600 X103.86 Y96.22
G1 F900 X104.49 Y96.86 E21.61593
G0 F3600 X104.22 Y97.15
G1 F900 X103.86 Y97.07 E21.63274
G1 X103.94 Y97.44 E21.64515
G0 F3600 X105.98 Y92.12
G1 F900 X99.32 Y85.46 E21.95832
G0 F3600 X99.99 Y85.57
G1 F900 X105.91 Y91.49 E22.23678
G0 F3600 X105.79 Y90.80
G1 F900 X100.67 Y85.68 E22.47789
G0 F3600 X101.53 Y85.98
G1 F900 X105.51 Y89.95 E22.66474
G0 F3600 X104.93 Y88.80
G1 F900 X102.65 Y86.53 E22.77185
G0 F3600 X97.27 Y89.76
G0 X95.91 Y91.50
G0 X94.50 Y94.78
G1 F900 X91.97 Y92.25 E22.89090
G0 F3600 X91.97 Y92.81
G1 F900 X94.21 Y95.06 E22.99666
G0 F3600 X94.08 Y95.50
G1 F900 X92.00 Y93.41 E23.09473
G0 F3600 X92.16 Y94.14
G1 F900 X94.08 Y96.06 E23.18525
G0 F3600 X94.08 Y96.63
G1 F900 X92.38 Y94.92 E23.26562
G0 F3600 X92.86 Y95.97
G1 F900 X94.08 Y97.19 E23.32314
;LAYER:1
M106 S127
G0 F12000 X93.75 Y97.44 Z0.35
;TYPE:WALL-INNER
G1 F1380 X92.81 Y96.21 E23.36186
G1 X92.16 Y94.79 E23.40075
G1 X91.83 Y93.28 E23.43947
G1 X91.83 Y91.72 E23.47824
G1 X92.16 Y90.21 E23.51696
G1 X92.81 Y88.79 E23.55585
G1 X93.75 Y87.56 E23.59457
G1 X94.94 Y86.55 E23.63332
G1 X96.31 Y85.82 E23.67217
G1 X97.81 Y85.41 E23.71095
G1 X99.36 Y85.32 E23.74967
G1 X100.90 Y85.57 E23.78844
G1 X102.34 Y86.15 E23.82721
G1 X103.63 Y87.02 E23.86601
G1 X104.70 Y88.15 E23.90486
G1 X105.50 Y89.48 E23.94350
G1 X106.00 Y90.96 E23.98246
G1 X106.16 Y92.50 E24.02113
G1 X106.00 Y94.04 E24.05979
G1 X105.50 Y95.52 E24.09875
G1 X104.70 Y96.85 E24.13739
G1 X103.72 Y97.88 E24.17277
G1 X103.72 Y95.25 E24.23823
G1 X102.83 Y94.36 E24.26959
G1 X103.40 Y92.82 E24.31068
G1 X103.40 Y92.18 E24.32652
G1 X102.57 Y89.90 E24.38715
G1 X102.16 Y89.41 E24.40298
G1 X100.05 Y88.20 E24.46359
G1 X99.43 Y88.09 E24.47944
G1 X97.04 Y88.51 E24.54004
G1 X96.49 Y88.83 E24.55589
G1 X94.92 Y90.69 E24.61653
G1 X94.71 Y91.28 E24.63234
G1 X94.71 Y93.71 E24.69294
G1 X94.92 Y94.31 E24.70875
G1 X95.03 Y94.44 E24.71309
G1 X94.22 Y95.25 E24.74170
G1 X94.22 Y97.84 E24.80628
G1 X93.75 Y97.44 E24.82166
G0 F12000 X93.46 Y97.72
G1 F1380 X92.47 Y96.41 E24.86265
G1 X91.78 Y94.92 E24.90371
G1 X91.43 Y93.32 E24.94452
G1 X91.43 Y91.68 E24.98553
G1 X91.78 Y90.08 E25.02635
G1 X92.47 Y88.59 E25.06740
G1 X93.46 Y87.28 E25.10840
G1 X94.71 Y86.22 E25.14929
G1 X96.16 Y85.45 E25.19019
G1 X97.75 Y85.01 E25.23120
G1 X99.38 Y84.92 E25.27207
G1 X101.01 Y85.19 E25.31310
G1 X102.53 Y85.79 E25.35402
G1 X103.89 Y86.71 E25.39494
G1 X105.02 Y87.91 E25.43593
G1 X105.86 Y89.31 E25.47686
G1 X106.39 Y90.87 E25.51783
G1 X106.57 Y92.50 E25.55875
G1 X106.39 Y94.13 E25.59967
G1 X105.86 Y95.69 E25.64064
G1 X105.02 Y97.09 E25.68157
G1 X103.89 Y98.29 E25.72256
G1 X103.32 Y98.67 E25.73955
G1 X103.32 Y95.42 E25.82057
G1 X102.50 Y94.60 E25.84952
G1 X102.32 Y94.60 E25.85399
G1 X103.00 Y92.75 E25.90318
G1 X103.00 Y92.25 E25.91553
G1 X102.22 Y90.10 E25.97261
G1 X101.90 Y89.72 E25.98493
G1 X99.92 Y88.58 E26.04203
G1 X99.43 Y88.49 E26.05434
